; generated by Slic3r 1.33.8-prusa3d-win64 on 2017-05-11 at 10:35:06

; external perimeters extrusion width = 0.40mm
; perimeters extrusion width = 0.67mm
; infill extrusion width = 0.67mm
; solid infill extrusion width = 0.67mm
; top infill extrusion width = 0.67mm

M107
M80 ; turn on PSU
M140 S55
M104 S240 ; start E heating
M17; enable motors
G28 X Y ; Z ; Home
M190 S55
M109 S240
G91
G1 E5 F200
G90
G21 ; set units to millimeters
G90 ; use absolute coordinates
M82 ; use absolute distances for extrusion
G92 E0
G1 Z0.200 F5400.000
G1 E-1.50000 F1800.00000
G92 E0
G1 X171.443 Y134.075 F5400.000
G1 E1.50000 F1800.00000
G1 F1200
G1 X171.805 Y133.647 E1.52928
G1 X172.206 Y133.263 E1.55827
G1 X172.645 Y132.924 E1.58726
G1 X173.123 Y132.631 E1.61654
G1 X173.624 Y132.392 E1.64553
G1 X174.152 Y132.206 E1.67481
G1 X174.698 Y132.077 E1.70410
G1 X175.254 Y132.007 E1.73338
G1 X206.892 Y130.544 E3.38805
G1 X207.382 Y130.554 E3.41367
G1 X207.813 Y130.589 E3.43626
G1 X208.644 Y130.733 E3.48032
G1 X209.376 Y130.944 E3.52016
G1 X209.755 Y131.087 E3.54127
G1 X210.190 Y131.282 E3.56619
G1 X210.916 Y131.691 E3.60971
G1 X211.270 Y131.932 E3.63210
G1 X211.614 Y132.199 E3.65484
G1 X211.949 Y132.493 E3.67815
G1 X212.247 Y132.788 E3.70006
G1 X212.779 Y133.412 E3.74287
G1 X213.179 Y133.995 E3.77985
G1 X213.577 Y134.664 E3.82049
G1 X213.770 Y135.042 E3.84267
G1 X213.917 Y135.392 E3.86250
G1 X214.037 Y135.746 E3.88202
G1 X214.131 Y136.108 E3.90155
G1 X214.200 Y136.481 E3.92137
G1 X214.242 Y136.858 E3.94120
G1 X214.257 Y137.231 E3.96073
G1 X214.255 Y152.892 E4.77890
G1 X214.208 Y153.462 E4.80877
G1 X214.102 Y154.018 E4.83835
G1 X213.934 Y154.564 E4.86823
G1 X213.707 Y155.089 E4.89810
G1 X213.110 Y156.115 E4.96010
G1 X212.863 Y156.476 E4.98296
G1 X212.585 Y156.833 E5.00663
G1 X212.278 Y157.180 E5.03079
G1 X211.936 Y157.519 E5.05597
G1 X211.581 Y157.828 E5.08055
G1 X211.175 Y158.135 E5.10714
G1 X210.802 Y158.380 E5.13047
G1 X210.356 Y158.633 E5.15729
G1 X209.812 Y158.889 E5.18867
G1 X209.356 Y159.063 E5.21417
G1 X208.861 Y159.214 E5.24119
G1 X208.399 Y159.320 E5.26597
G1 X207.916 Y159.399 E5.29155
G1 X207.434 Y159.444 E5.31685
G1 X206.641 Y159.447 E5.35828
G1 X175.327 Y157.998 E6.99601
G1 X174.804 Y157.941 E7.02352
G1 X174.288 Y157.832 E7.05103
G1 X173.787 Y157.672 E7.07854
G1 X173.298 Y157.460 E7.10635
G1 X172.796 Y157.176 E7.13652
G1 X172.328 Y156.838 E7.16669
G1 X171.899 Y156.451 E7.19686
G1 X171.516 Y156.019 E7.22703
G1 X166.675 Y149.122 E7.66728
G1 X166.323 Y148.534 E7.70306
G1 X166.049 Y147.900 E7.73914
G1 X165.861 Y147.241 E7.77492
G1 X165.760 Y146.558 E7.81100
G1 X165.743 Y146.168 E7.83141
G1 X165.743 Y143.854 E7.95229
G1 X165.766 Y143.379 E7.97714
G1 X165.824 Y142.947 E7.99992
G1 X165.920 Y142.516 E8.02299
G1 X166.049 Y142.099 E8.04577
G1 X166.212 Y141.695 E8.06855
G1 X166.420 Y141.286 E8.09251
G1 X166.665 Y140.892 E8.11677
G1 X171.407 Y134.123 E8.54857
G1 X171.957 Y134.437 F5400.000
G1 F1200
G1 X172.274 Y134.065 E8.57410
G1 X172.629 Y133.728 E8.59964
G1 X173.017 Y133.431 E8.62517
G1 X173.439 Y133.174 E8.65098
G1 X173.881 Y132.966 E8.67652
G1 X174.348 Y132.804 E8.70233
G1 X174.824 Y132.693 E8.72786
G1 X175.314 Y132.633 E8.75368
G1 X206.892 Y131.173 E10.40522
G1 X207.697 Y131.209 E10.44730
G1 X208.376 Y131.317 E10.48322
G1 X209.123 Y131.521 E10.52369
G1 X209.493 Y131.658 E10.54430
G1 X209.901 Y131.840 E10.56765
G1 X210.572 Y132.217 E10.60785
G1 X211.209 Y132.680 E10.64899
G1 X211.795 Y133.224 E10.69077
G1 X212.278 Y133.792 E10.72976
G1 X212.642 Y134.322 E10.76331
G1 X213.025 Y134.965 E10.80246
G1 X213.198 Y135.301 E10.82217
G1 X213.438 Y135.937 E10.85768
G1 X213.583 Y136.601 E10.89319
G1 X213.628 Y137.237 E10.92649
G1 X213.627 Y152.862 E11.74281
G1 X213.588 Y153.359 E11.76890
G1 X213.494 Y153.855 E11.79527
G1 X213.347 Y154.338 E11.82164
G1 X213.149 Y154.802 E11.84800
G1 X212.585 Y155.770 E11.90653
G1 X212.105 Y156.427 E11.94905
G1 X211.822 Y156.748 E11.97140
G1 X211.513 Y157.055 E11.99416
G1 X211.188 Y157.337 E12.01662
G1 X210.817 Y157.619 E12.04099
G1 X210.440 Y157.865 E12.06450
G1 X209.953 Y158.133 E12.09353
G1 X209.519 Y158.331 E12.11843
G1 X209.141 Y158.473 E12.13956
G1 X208.687 Y158.610 E12.16432
G1 X208.259 Y158.708 E12.18725
G1 X207.822 Y158.777 E12.21038
G1 X207.370 Y158.818 E12.23408
G1 X206.665 Y158.820 E12.27093
G1 X175.371 Y157.371 E13.90765
G1 X174.911 Y157.322 E13.93180
G1 X174.459 Y157.227 E13.95595
G1 X174.013 Y157.086 E13.98037
G1 X173.588 Y156.903 E14.00452
G1 X173.135 Y156.647 E14.03172
G1 X172.717 Y156.345 E14.05864
G1 X172.332 Y155.995 E14.08584
G1 X171.992 Y155.608 E14.11276
G1 X167.194 Y148.767 E14.54931
G1 X166.880 Y148.243 E14.58122
G1 X166.636 Y147.677 E14.61340
G1 X166.471 Y147.089 E14.64531
G1 X166.385 Y146.479 E14.67750
G1 X166.372 Y143.855 E14.81461
G1 X166.391 Y143.446 E14.83599
G1 X166.444 Y143.051 E14.85681
G1 X166.529 Y142.668 E14.87735
G1 X166.647 Y142.292 E14.89789
G1 X166.796 Y141.929 E14.91843
G1 X166.976 Y141.579 E14.93897
G1 X167.188 Y141.241 E14.95979
G1 X171.921 Y134.485 E15.39080
G1 E13.89080 F1800.00000
G92 E0
G1 X206.270 Y151.515 F5400.000
G1 E1.50000 F1800.00000
G1 F1200
G1 X206.412 Y151.390 E1.50559
G1 X206.574 Y151.294 E1.51119
G1 X206.752 Y151.230 E1.51679
G1 X206.947 Y151.200 E1.52268
G1 X207.185 Y151.216 E1.52974
G1 X207.368 Y151.269 E1.53542
G1 X207.536 Y151.355 E1.54101
G1 X207.685 Y151.470 E1.54661
G1 X207.810 Y151.612 E1.55220
G1 X207.906 Y151.774 E1.55779
G1 X207.969 Y151.951 E1.56338
G1 X207.999 Y152.132 E1.56884
G1 X207.993 Y152.325 E1.57457
G1 X207.952 Y152.509 E1.58017
G1 X207.877 Y152.682 E1.58576
G1 X207.771 Y152.838 E1.59135
G1 X207.638 Y152.971 E1.59695
G1 X207.480 Y153.079 E1.60263
G1 X207.252 Y153.169 E1.60990
G1 X207.063 Y153.199 E1.61559
G1 X206.875 Y153.193 E1.62118
G1 X206.691 Y153.152 E1.62677
G1 X206.518 Y153.077 E1.63237
G1 X206.362 Y152.971 E1.63796
G1 X206.229 Y152.838 E1.64355
G1 X206.123 Y152.682 E1.64915
G1 X206.047 Y152.507 E1.65482
G1 X206.001 Y152.271 E1.66196
G1 X206.007 Y152.075 E1.66778
G1 X206.049 Y151.888 E1.67348
G1 X206.153 Y151.666 E1.68074
G1 X206.234 Y151.562 E1.68465
G1 X206.214 Y151.335 F5400.000
G1 E0.18465 F1800.00000
G92 E0
G1 X175.469 Y145.280 F5400.000
G1 E1.50000 F1800.00000
G1 F1200
G1 X175.391 Y145.551 E1.51471
G1 X175.263 Y145.801 E1.52942
G1 X175.088 Y146.027 E1.54434
G1 X174.839 Y146.242 E1.56152
G1 X174.553 Y146.390 E1.57832
G1 X174.280 Y146.469 E1.59317
G1 X174.000 Y146.496 E1.60788
G1 X173.720 Y146.469 E1.62259
G1 X173.449 Y146.391 E1.63730
G1 X173.197 Y146.262 E1.65210
G1 X172.961 Y146.077 E1.66776
G1 X172.742 Y145.810 E1.68581
G1 X172.609 Y145.551 E1.70104
G1 X172.531 Y145.280 E1.71575
G1 X172.502 Y144.978 E1.73161
G1 X172.569 Y144.558 E1.75383
G1 X172.688 Y144.283 E1.76947
G1 X172.856 Y144.028 E1.78544
G1 X173.117 Y143.792 E1.80379
G1 X173.363 Y143.647 E1.81876
G1 X173.634 Y143.549 E1.83382
G1 X173.956 Y143.504 E1.85080
G1 X174.275 Y143.529 E1.86749
G1 X174.551 Y143.609 E1.88250
G1 X174.801 Y143.737 E1.89721
G1 X175.032 Y143.916 E1.91243
G1 X175.253 Y144.181 E1.93048
G1 X175.390 Y144.448 E1.94615
G1 X175.469 Y144.720 E1.96095
G1 X175.496 Y145.000 E1.97566
G1 X175.475 Y145.221 E1.98723
G1 X174.983 Y145.188 F5400.000
G1 F1200
G1 X174.931 Y145.368 E1.99282
G1 X174.845 Y145.536 E1.99842
G1 X174.729 Y145.686 E2.00405
G1 X174.561 Y145.831 E2.01064
G1 X174.369 Y145.930 E2.01704
G1 X174.188 Y145.983 E2.02266
G1 X174.000 Y146.001 E2.02825
G1 X173.812 Y145.983 E2.03384
G1 X173.632 Y145.931 E2.03944
G1 X173.463 Y145.845 E2.04505
G1 X173.307 Y145.723 E2.05093
G1 X173.156 Y145.539 E2.05799
G1 X173.069 Y145.368 E2.06367
G1 X173.017 Y145.188 E2.06927
G1 X172.999 Y144.994 E2.07505
G1 X173.046 Y144.697 E2.08398
G1 X173.122 Y144.519 E2.08973
G1 X173.233 Y144.352 E2.09567
G1 X173.410 Y144.191 E2.10279
G1 X173.574 Y144.094 E2.10842
G1 X173.753 Y144.030 E2.11407
G1 X173.971 Y144.000 E2.12061
G1 X174.186 Y144.016 E2.12701
G1 X174.368 Y144.069 E2.13265
G1 X174.536 Y144.155 E2.13825
G1 X174.687 Y144.272 E2.14393
G1 X174.840 Y144.455 E2.15099
G1 X174.930 Y144.631 E2.15687
G1 X174.983 Y144.812 E2.16248
G1 X175.001 Y145.000 E2.16807
G1 X174.989 Y145.128 E2.17189
G1 X175.126 Y145.311 F5400.000
G1 E0.67189 F1800.00000
G92 E0
G1 X189.807 Y140.807 F5400.000
G1 E1.50000 F1800.00000
G1 F1200
G1 X189.807 Y149.193 E1.93809
G1 X208.307 Y149.193 E2.90463
G1 X208.307 Y151.330 E3.01627
G1 X207.802 Y150.937 E3.04971
G1 X207.551 Y150.809 E3.06443
G1 X207.271 Y150.728 E3.07965
G1 X206.926 Y150.705 E3.09770
G1 X206.630 Y150.751 E3.11337
G1 X206.363 Y150.847 E3.12817
G1 X206.121 Y150.990 E3.14287
G1 X205.910 Y151.176 E3.15758
G1 X205.730 Y151.407 E3.17287
G1 X205.580 Y151.727 E3.19133
G1 X205.506 Y152.057 E3.20901
G1 X175.993 Y152.057 E4.75092
G1 X171.693 Y145.916 E5.14261
G1 X171.693 Y144.084 E5.23832
G1 X175.993 Y137.943 E5.63001
G1 X205.515 Y137.943 E7.17239
G1 X205.551 Y138.172 E7.18451
G1 X205.647 Y138.437 E7.19923
G1 X205.790 Y138.679 E7.21394
G1 X205.976 Y138.890 E7.22864
G1 X206.198 Y139.063 E7.24334
G1 X206.458 Y139.195 E7.25858
G1 X206.793 Y139.282 E7.27662
G1 X207.092 Y139.293 E7.29229
G1 X207.383 Y139.247 E7.30767
G1 X207.712 Y139.117 E7.32614
G1 X207.953 Y138.953 E7.34141
G1 X208.307 Y138.599 E7.36756
G1 X208.307 Y140.807 E7.48295
G1 X189.867 Y140.807 E8.44634
G1 E6.94634 F1800.00000
G92 E0
G1 X206.001 Y137.863 F5400.000
G1 E1.50000 F1800.00000
G1 F1200
G1 X206.007 Y137.671 E1.50569
G1 X206.068 Y137.434 E1.51295
G1 X206.155 Y137.264 E1.51864
G1 X206.270 Y137.115 E1.52423
G1 X206.412 Y136.990 E1.52983
G1 X206.574 Y136.894 E1.53542
G1 X206.752 Y136.830 E1.54104
G1 X206.956 Y136.800 E1.54716
G1 X207.185 Y136.816 E1.55399
G1 X207.368 Y136.869 E1.55965
G1 X207.536 Y136.955 E1.56525
G1 X207.685 Y137.070 E1.57084
G1 X207.810 Y137.212 E1.57643
G1 X207.906 Y137.374 E1.58203
G1 X207.969 Y137.551 E1.58761
G1 X207.999 Y137.732 E1.59307
G1 X207.993 Y137.925 E1.59880
G1 X207.952 Y138.109 E1.60440
G1 X207.877 Y138.282 E1.60999
G1 X207.771 Y138.438 E1.61559
G1 X207.638 Y138.571 E1.62118
G1 X207.480 Y138.679 E1.62687
G1 X207.252 Y138.769 E1.63413
G1 X207.062 Y138.799 E1.63984
G1 X206.864 Y138.792 E1.64572
G1 X206.634 Y138.732 E1.65278
G1 X206.464 Y138.645 E1.65846
G1 X206.315 Y138.530 E1.66405
G1 X206.190 Y138.388 E1.66965
G1 X206.094 Y138.226 E1.67524
G1 X206.031 Y138.049 E1.68084
G1 X206.010 Y137.922 E1.68465
G1 X205.830 Y137.778 F5400.000
G1 E0.18465 F1800.00000
G92 E0
G1 X190.300 Y141.300 F5400.000
G1 E1.50000 F1800.00000
G1 F1200
G1 X207.700 Y141.300 E2.01663
G1 X207.700 Y148.700 E2.23634
G1 X190.300 Y148.700 E2.75297
G1 X190.300 Y141.360 E2.97091
G1 X190.148 Y140.930 F5400.000
G1 E1.47091 F1800.00000
G92 E0
G1 X205.222 Y152.550 F5400.000
G1 E1.50000 F1800.00000
G1 F1200
G1 X175.736 Y152.550 E2.37547
G1 X171.200 Y146.071 E2.61030
G1 X171.200 Y143.929 E2.67392
G1 X175.736 Y137.450 E2.90874
G1 X205.217 Y137.450 E3.78406
G1 X205.372 Y137.035 E3.79721
G1 X205.545 Y136.743 E3.80730
G1 X205.771 Y136.486 E3.81745
G1 X205.940 Y136.346 E3.82397
G1 X206.237 Y136.171 E3.83421
G1 X206.441 Y136.090 E3.84074
G1 X206.775 Y136.015 E3.85089
G1 X207.108 Y136.004 E3.86080
G1 X207.338 Y136.032 E3.86766
G1 X207.556 Y136.088 E3.87436
G1 X207.763 Y136.171 E3.88098
G1 X208.060 Y136.346 E3.89122
G1 X208.229 Y136.486 E3.89774
G1 X208.455 Y136.743 E3.90789
G1 X208.628 Y137.035 E3.91797
G1 X208.800 Y137.496 E3.93258
G1 X208.800 Y152.504 E4.37819
G1 X208.627 Y152.968 E4.39289
G1 X208.520 Y153.164 E4.39954
G1 X208.387 Y153.347 E4.40625
G1 X208.232 Y153.512 E4.41296
G1 X208.058 Y153.656 E4.41967
G1 X207.867 Y153.777 E4.42638
G1 X207.662 Y153.873 E4.43309
G1 X207.451 Y153.942 E4.43970
G1 X207.113 Y153.996 E4.44985
G1 X206.774 Y153.985 E4.45991
G1 X206.444 Y153.911 E4.46996
G1 X206.133 Y153.777 E4.48002
G1 X205.853 Y153.586 E4.49007
G1 X205.614 Y153.347 E4.50012
G1 X205.422 Y153.064 E4.51027
G1 X205.326 Y152.862 E4.51691
G1 X205.241 Y152.607 E4.52489
G1 X205.173 Y152.153 F5400.000
G1 X205.581 Y152.304 F5400.000
G1 F1200
G1 X205.671 Y152.640 E4.53221
G1 X205.769 Y152.866 E4.53737
G1 X205.922 Y153.092 E4.54310
G1 X206.119 Y153.287 E4.54893
G1 X206.339 Y153.432 E4.55446
G1 X206.568 Y153.531 E4.55969
G1 X206.811 Y153.586 E4.56492
G1 X207.088 Y153.597 E4.57075
G1 X207.357 Y153.554 E4.57648
G1 X207.675 Y153.427 E4.58366
G1 X207.957 Y153.219 E4.59102
G1 X208.079 Y153.093 E4.59471
G1 X208.180 Y152.949 E4.59840
G1 X208.325 Y152.645 E4.60546
G1 X208.394 Y152.391 E4.61100
G1 X208.385 Y151.915 E4.62099
G1 X208.104 Y151.484 E4.63179
G1 X208.065 Y151.495 F5400.000
G1 F1200
G1 X208.554 Y152.091 E4.63811
G1 E3.13811 F1800.00000
G92 E0
G1 X208.250 Y148.946 F5400.000
G1 E1.50000 F1800.00000
G1 F1200
G1 X208.250 Y141.054 E1.87039
G1 X208.056 Y140.512 F5400.000
G1 F1200
G1 X207.339 Y139.795 E1.92358
G1 X207.124 Y139.829 E1.93498
G1 X206.715 Y139.814 E1.95649
G1 X206.378 Y139.726 E1.97472
G1 X206.925 Y140.273 E2.01530
G1 X206.033 Y140.273 E2.06210
G1 X204.237 Y138.477 E2.19539
G1 X203.344 Y138.477 E2.24220
G1 X205.141 Y140.273 E2.37548
G1 X204.249 Y140.273 E2.42229
G1 X202.452 Y138.477 E2.55558
G1 X201.560 Y138.477 E2.60239
G1 X203.356 Y140.273 E2.73567
G1 X202.464 Y140.273 E2.78248
G1 X200.668 Y138.477 E2.91577
G1 X199.775 Y138.477 E2.96258
G1 X201.572 Y140.273 E3.09586
G1 X200.680 Y140.273 E3.14267
G1 X198.883 Y138.477 E3.27595
G1 X197.991 Y138.477 E3.32276
G1 X199.787 Y140.273 E3.45605
G1 X198.895 Y140.273 E3.50286
G1 X197.099 Y138.477 E3.63614
G1 X196.206 Y138.477 E3.68295
G1 X198.003 Y140.273 E3.81624
G1 X197.111 Y140.273 E3.86305
G1 X195.314 Y138.477 E3.99633
G1 X194.422 Y138.477 E4.04314
G1 X196.218 Y140.273 E4.17643
G1 X195.326 Y140.273 E4.22323
G1 X193.530 Y138.477 E4.35652
G1 X192.637 Y138.477 E4.40333
G1 X194.434 Y140.273 E4.53661
G1 X193.542 Y140.273 E4.58342
G1 X191.745 Y138.477 E4.71671
G1 X190.853 Y138.477 E4.76352
G1 X192.649 Y140.273 E4.89680
G1 X191.757 Y140.273 E4.94361
G1 X189.960 Y138.477 E5.07690
G1 X189.068 Y138.477 E5.12370
G1 X190.865 Y140.273 E5.25699
G1 X189.972 Y140.273 E5.30380
G1 X188.176 Y138.477 E5.43708
G1 X187.284 Y138.477 E5.48389
G1 X189.273 Y140.466 E5.63150
G1 X189.273 Y141.359 E5.67831
G1 X186.391 Y138.477 E5.89211
G1 X185.499 Y138.477 E5.93892
G1 X189.273 Y142.251 E6.21892
G1 X189.273 Y143.143 E6.26573
G1 X184.607 Y138.477 E6.61193
G1 X183.715 Y138.477 E6.65874
G1 X189.273 Y144.035 E7.07114
G1 X189.273 Y144.928 E7.11795
G1 X182.822 Y138.477 E7.59654
G1 X181.930 Y138.477 E7.64335
G1 X189.273 Y145.820 E8.18814
G1 X189.273 Y146.712 E8.23495
G1 X181.038 Y138.477 E8.84594
G1 X180.146 Y138.477 E8.89275
G1 X189.273 Y147.604 E9.56994
G1 X189.273 Y148.497 E9.61675
G1 X179.253 Y138.477 E10.36014
G1 X178.361 Y138.477 E10.40695
G1 X191.408 Y151.523 E11.37489
G1 X192.300 Y151.523 E11.42170
G1 X190.503 Y149.727 E11.55498
G1 X191.396 Y149.727 E11.60179
G1 X193.192 Y151.523 E11.73508
G1 X194.084 Y151.523 E11.78188
G1 X192.288 Y149.727 E11.91517
G1 X193.180 Y149.727 E11.96198
G1 X194.977 Y151.523 E12.09526
G1 X195.869 Y151.523 E12.14207
G1 X194.072 Y149.727 E12.27536
G1 X194.965 Y149.727 E12.32217
G1 X196.761 Y151.523 E12.45545
G1 X197.653 Y151.523 E12.50226
G1 X195.857 Y149.727 E12.63555
G1 X196.749 Y149.727 E12.68235
G1 X198.546 Y151.523 E12.81564
G1 X199.438 Y151.523 E12.86245
G1 X197.641 Y149.727 E12.99573
G1 X198.534 Y149.727 E13.04254
G1 X200.330 Y151.523 E13.17583
G1 X201.222 Y151.523 E13.22264
G1 X199.426 Y149.727 E13.35592
G1 X200.318 Y149.727 E13.40273
G1 X202.115 Y151.523 E13.53602
G1 X203.007 Y151.523 E13.58282
G1 X201.210 Y149.727 E13.71611
G1 X202.103 Y149.727 E13.76292
G1 X203.899 Y151.523 E13.89620
G1 X204.792 Y151.523 E13.94301
G1 X202.995 Y149.727 E14.07630
G1 X203.887 Y149.727 E14.12311
G1 X205.279 Y151.118 E14.22633
G1 X205.519 Y150.809 E14.24688
G1 X205.701 Y150.648 E14.25962
G1 X204.780 Y149.727 E14.32798
G1 X205.672 Y149.727 E14.37479
G1 X206.261 Y150.316 E14.41849
G1 X206.497 Y150.231 E14.43168
G1 X206.903 Y150.168 E14.45321
G1 X207.013 Y150.176 E14.45899
G1 X206.564 Y149.727 E14.49230
G1 X207.456 Y149.727 E14.53911
G1 X208.056 Y150.326 E14.58360
G1 E13.08360 F1800.00000
G92 E0
G1 X190.798 Y151.806 F5400.000
G1 E1.50000 F1800.00000
G1 F1200
