; generated by Slic3r 1.33.8-prusa3d-win64 on 2017-05-08 at 13:11:24

; external perimeters extrusion width = 0.40mm
; perimeters extrusion width = 0.68mm
; infill extrusion width = 0.87mm
; solid infill extrusion width = 0.68mm
; top infill extrusion width = 0.68mm

M107
M80 ; turn on PSU
M140 S60
M104 S240 ; start E heating
M17; enable motors
G28 X Y Z ; Home
M190 S60
M109 S240
G91
G1 E5 F200
G90
G21 ; set units to millimeters
G90 ; use absolute coordinates
M82 ; use absolute distances for extrusion
G92 E0
G1 Z0.200 F5400.000
G1 E-1.50000 F1800.00000
G92 E0
G1 X181.782 Y140.009 F5400.000
G1 E1.50000 F1800.00000
G1 F931.451
G1 X182.503 Y139.146 E1.55874
G1 X183.252 Y138.426 E1.61301
G1 X183.670 Y138.079 E1.64140
G1 X184.556 Y137.453 E1.69806
G1 X185.585 Y136.887 E1.75944
G1 X186.562 Y136.486 E1.81461
G1 X187.095 Y136.312 E1.84389
G1 X188.182 Y136.051 E1.90231
G1 X189.320 Y135.911 E1.96222
G1 X190.365 Y135.899 E2.01680
G1 X190.919 Y135.933 E2.04578
G1 X192.020 Y136.090 E2.10391
G1 X193.141 Y136.381 E2.16441
G1 X194.158 Y136.772 E2.22135
G1 X194.543 Y136.952 E2.24354
G1 X195.226 Y137.325 E2.28422
G1 X195.725 Y137.639 E2.31498
G1 X196.545 Y138.248 E2.36838
G1 X197.321 Y138.965 E2.42356
G1 X197.682 Y139.356 E2.45136
G1 X198.160 Y139.935 E2.49056
G1 X198.385 Y140.240 E2.51039
G1 X198.982 Y141.192 E2.56911
G1 X199.457 Y142.180 E2.62635
G1 X199.609 Y142.564 E2.64795
G1 X199.853 Y143.310 E2.68893
G1 X200.004 Y143.902 E2.72087
G1 X200.180 Y144.892 E2.77338
G1 X200.254 Y145.979 E2.83033
G1 X200.252 Y146.370 E2.85074
G1 X200.203 Y147.153 E2.89173
G1 X200.124 Y147.757 E2.92355
G1 X199.915 Y148.771 E2.97766
G1 X199.533 Y149.930 E3.04141
G1 X199.013 Y151.040 E3.10544
G1 X198.480 Y151.892 E3.15795
G1 X198.124 Y152.339 E3.18782
G1 X197.721 Y152.745 E3.21770
G1 X197.277 Y153.105 E3.24757
G1 X196.791 Y153.417 E3.27774
G1 X196.279 Y153.672 E3.30762
G1 X195.742 Y153.869 E3.33749
G1 X195.187 Y154.007 E3.36736
G1 X194.615 Y154.085 E3.39753
G1 X194.208 Y154.102 E3.41883
G1 X185.803 Y154.102 E3.85793
G1 X185.385 Y154.085 E3.87982
G1 X184.690 Y153.983 E3.91649
G1 X184.016 Y153.788 E3.95316
G1 X183.373 Y153.506 E3.98983
G1 X182.769 Y153.138 E4.02679
G1 X182.233 Y152.703 E4.06287
G1 X181.758 Y152.202 E4.09894
G1 X181.392 Y151.704 E4.13118
G1 X181.100 Y151.240 E4.15984
G1 X180.916 Y150.902 E4.17996
G1 X180.464 Y149.922 E4.23635
G1 X180.122 Y148.899 E4.29268
G1 X180.018 Y148.493 E4.31458
G1 X179.874 Y147.745 E4.35439
G1 X179.799 Y147.184 E4.38397
G1 X179.743 Y146.146 E4.43826
G1 X179.799 Y145.109 E4.49252
G1 X179.866 Y144.587 E4.52003
G1 X180.087 Y143.514 E4.57728
G1 X180.447 Y142.413 E4.63779
G1 X180.879 Y141.462 E4.69234
G1 X181.145 Y140.975 E4.72133
G1 X181.746 Y140.057 E4.77869
G1 X182.265 Y140.412 F5400.000
G1 F931.451
G1 X182.957 Y139.580 E4.83522
G1 X183.668 Y138.897 E4.88672
G1 X184.039 Y138.587 E4.91198
G1 X184.874 Y137.995 E4.96544
G1 X185.859 Y137.453 E5.02418
G1 X186.776 Y137.077 E5.07597
G1 X187.250 Y136.921 E5.10206
G1 X188.270 Y136.674 E5.15690
G1 X189.360 Y136.538 E5.21426
G1 X190.351 Y136.527 E5.26605
G1 X190.839 Y136.556 E5.29158
G1 X191.879 Y136.702 E5.34643
G1 X192.946 Y136.979 E5.40406
G1 X193.902 Y137.346 E5.45752
G1 X194.258 Y137.511 E5.47806
G1 X194.913 Y137.870 E5.51709
G1 X195.350 Y138.144 E5.54401
G1 X196.138 Y138.727 E5.59525
G1 X196.871 Y139.404 E5.64733
G1 X197.193 Y139.750 E5.67203
G1 X197.858 Y140.582 E5.72771
G1 X198.430 Y141.494 E5.78395
G1 X198.877 Y142.421 E5.83769
G1 X199.018 Y142.776 E5.85767
G1 X199.251 Y143.492 E5.89698
G1 X199.385 Y144.011 E5.92501
G1 X199.555 Y144.956 E5.97515
G1 X199.626 Y145.987 E6.02916
G1 X199.624 Y146.343 E6.04776
G1 X199.578 Y147.094 E6.08708
G1 X199.510 Y147.621 E6.11483
G1 X199.312 Y148.593 E6.16663
G1 X198.955 Y149.681 E6.22648
G1 X198.464 Y150.733 E6.28714
G1 X197.977 Y151.515 E6.33525
G1 X197.664 Y151.911 E6.36162
G1 X197.306 Y152.274 E6.38826
G1 X196.910 Y152.595 E6.41490
G1 X196.481 Y152.871 E6.44155
G1 X196.024 Y153.097 E6.46819
G1 X195.545 Y153.273 E6.49484
G1 X195.050 Y153.394 E6.52148
G1 X194.544 Y153.460 E6.54812
G1 X194.197 Y153.473 E6.56629
G1 X185.469 Y153.461 E7.02228
G1 X184.853 Y153.375 E7.05475
G1 X184.250 Y153.205 E7.08749
G1 X183.675 Y152.955 E7.12023
G1 X183.144 Y152.633 E7.15269
G1 X182.661 Y152.243 E7.18516
G1 X182.234 Y151.791 E7.21762
G1 X181.914 Y151.354 E7.24593
G1 X181.638 Y150.916 E7.27295
G1 X181.469 Y150.603 E7.29155
G1 X181.047 Y149.688 E7.34421
G1 X180.724 Y148.717 E7.39765
G1 X180.631 Y148.357 E7.41709
G1 X180.490 Y147.623 E7.45614
G1 X180.424 Y147.117 E7.48278
G1 X180.372 Y146.143 E7.53375
G1 X180.425 Y145.159 E7.58525
G1 X180.484 Y144.700 E7.60940
G1 X180.690 Y143.692 E7.66314
G1 X181.033 Y142.638 E7.72105
G1 X181.440 Y141.746 E7.77227
G1 X181.673 Y141.317 E7.79781
G1 X182.229 Y140.460 E7.85119
G1 E6.35119 F1800.00000
G92 E0
G1 X186.590 Y147.524 F5400.000
G1 E1.50000 F1800.00000
G1 F931.451
G1 X186.439 Y147.059 E1.52553
G1 X186.353 Y146.606 E1.54965
G1 X186.324 Y146.145 E1.57377
G1 X186.353 Y145.684 E1.59789
G1 X186.439 Y145.231 E1.62201
G1 X186.582 Y144.792 E1.64613
G1 X186.778 Y144.374 E1.67025
G1 X187.026 Y143.984 E1.69437
G1 X187.320 Y143.628 E1.71849
G1 X187.657 Y143.312 E1.74261
G1 X188.030 Y143.041 E1.76673
G1 X188.435 Y142.819 E1.79085
G1 X188.864 Y142.649 E1.81498
G1 X189.311 Y142.534 E1.83910
G1 X189.768 Y142.476 E1.86316
G1 X190.238 Y142.477 E1.88769
G1 X190.689 Y142.534 E1.91145
G1 X191.136 Y142.649 E1.93557
G1 X191.565 Y142.819 E1.95970
G1 X191.970 Y143.041 E1.98382
G1 X192.343 Y143.312 E2.00794
G1 X192.680 Y143.628 E2.03206
G1 X192.974 Y143.984 E2.05618
G1 X193.222 Y144.374 E2.08030
G1 X193.418 Y144.792 E2.10442
G1 X193.561 Y145.231 E2.12854
G1 X193.647 Y145.684 E2.15266
G1 X193.676 Y146.145 E2.17678
G1 X193.647 Y146.606 E2.20090
G1 X193.561 Y147.059 E2.22502
G1 X193.410 Y147.524 E2.25055
G1 X192.321 Y147.524 E2.30744
G1 X192.321 Y146.062 E2.38382
G1 X192.258 Y145.565 E2.40998
G1 X192.044 Y145.023 E2.44044
G1 X191.734 Y144.595 E2.46807
G1 X191.465 Y144.339 E2.48745
G1 X191.065 Y144.073 E2.51256
G1 X190.718 Y143.935 E2.53206
G1 X190.395 Y143.852 E2.54948
G1 X189.854 Y143.818 E2.57782
G1 X189.321 Y143.920 E2.60616
G1 X188.972 Y144.058 E2.62577
G1 X188.514 Y144.349 E2.65411
G1 X188.143 Y144.744 E2.68245
G1 X187.941 Y145.061 E2.70206
G1 X187.742 Y145.565 E2.73040
G1 X187.679 Y146.062 E2.75655
G1 X187.679 Y147.524 E2.83294
G1 X186.650 Y147.524 E2.88669
G1 X186.195 Y148.152 F5400.000
G1 F931.451
G1 X185.996 Y147.730 E2.91107
G1 X185.829 Y147.216 E2.93932
G1 X185.728 Y146.685 E2.96757
G1 X185.694 Y146.145 E2.99582
G1 X185.728 Y145.605 E3.02407
G1 X185.829 Y145.074 E3.05233
G1 X185.996 Y144.560 E3.08058
G1 X186.227 Y144.071 E3.10883
G1 X186.516 Y143.614 E3.13708
G1 X186.861 Y143.197 E3.16533
G1 X187.255 Y142.827 E3.19358
G1 X187.693 Y142.509 E3.22183
G1 X188.167 Y142.249 E3.25008
G1 X188.669 Y142.050 E3.27833
G1 X189.193 Y141.915 E3.30659
G1 X189.729 Y141.848 E3.33481
G1 X190.278 Y141.849 E3.36347
G1 X190.807 Y141.915 E3.39134
G1 X191.331 Y142.050 E3.41959
G1 X191.833 Y142.249 E3.44784
G1 X192.307 Y142.509 E3.47609
G1 X192.745 Y142.827 E3.50434
G1 X193.139 Y143.197 E3.53259
G1 X193.484 Y143.614 E3.56084
G1 X193.773 Y144.071 E3.58909
G1 X194.004 Y144.560 E3.61734
G1 X194.171 Y145.074 E3.64560
G1 X194.272 Y145.605 E3.67385
G1 X194.306 Y146.145 E3.70210
G1 X194.272 Y146.685 E3.73035
G1 X194.171 Y147.216 E3.75860
G1 X194.004 Y147.730 E3.78685
G1 X193.805 Y148.152 E3.81123
G1 X191.693 Y148.152 E3.92158
G1 X191.693 Y146.101 E4.02873
G1 X191.645 Y145.723 E4.04867
G1 X191.488 Y145.328 E4.07087
G1 X191.258 Y145.010 E4.09138
G1 X191.072 Y144.831 E4.10487
G1 X190.772 Y144.632 E4.12364
G1 X190.523 Y144.534 E4.13762
G1 X190.296 Y144.476 E4.14988
G1 X189.893 Y144.450 E4.17097
G1 X189.497 Y144.526 E4.19206
G1 X189.258 Y144.620 E4.20546
G1 X188.918 Y144.837 E4.22655
G1 X188.641 Y145.131 E4.24764
G1 X188.504 Y145.347 E4.26104
G1 X188.355 Y145.723 E4.28213
G1 X188.307 Y146.101 E4.30208
G1 X188.307 Y148.152 E4.40923
G1 X186.255 Y148.152 E4.51644
G1 X185.913 Y148.645 F5400.000
G1 F931.451
G1 X185.794 Y148.457 E4.52305
G1 X185.537 Y147.912 E4.54094
G1 X185.351 Y147.339 E4.55884
G1 X185.238 Y146.747 E4.57673
G1 X185.200 Y146.145 E4.59463
G1 X185.238 Y145.544 E4.61253
G1 X185.351 Y144.951 E4.63042
G1 X185.537 Y144.378 E4.64832
G1 X185.794 Y143.833 E4.66621
G1 X186.117 Y143.324 E4.68411
G1 X186.501 Y142.860 E4.70201
G1 X186.941 Y142.447 E4.71990
G1 X187.428 Y142.093 E4.73780
G1 X187.956 Y141.802 E4.75569
G1 X188.517 Y141.580 E4.77359
G1 X189.101 Y141.430 E4.79149
G1 X189.698 Y141.355 E4.80938
G1 X190.309 Y141.356 E4.82751
G1 X190.899 Y141.430 E4.84517
G1 X191.483 Y141.580 E4.86307
G1 X192.044 Y141.802 E4.88097
G1 X192.572 Y142.093 E4.89886
G1 X193.059 Y142.447 E4.91676
G1 X193.499 Y142.860 E4.93465
G1 X193.883 Y143.324 E4.95255
G1 X194.206 Y143.833 E4.97045
G1 X194.463 Y144.378 E4.98834
G1 X194.649 Y144.951 E5.00624
G1 X194.762 Y145.544 E5.02413
G1 X194.800 Y146.145 E5.04203
G1 X194.762 Y146.747 E5.05993
G1 X194.649 Y147.339 E5.07782
G1 X194.463 Y147.912 E5.09572
G1 X194.206 Y148.457 E5.11362
G1 X194.087 Y148.645 E5.12022
G1 X191.200 Y148.645 E5.20593
G1 X191.200 Y146.132 E5.28053
G1 X191.164 Y145.846 E5.28910
G1 X191.053 Y145.566 E5.29803
G1 X190.886 Y145.335 E5.30652
G1 X190.763 Y145.218 E5.31156
G1 X190.543 Y145.071 E5.31940
G1 X190.371 Y145.003 E5.32489
G1 X190.219 Y144.964 E5.32955
G1 X189.925 Y144.946 E5.33831
G1 X189.635 Y145.001 E5.34706
G1 X189.483 Y145.061 E5.35191
G1 X189.234 Y145.219 E5.36067
G1 X189.032 Y145.434 E5.36942
G1 X188.945 Y145.572 E5.37427
G1 X188.836 Y145.846 E5.38303
G1 X188.800 Y146.132 E5.39159
G1 X188.800 Y148.645 E5.46619
G1 X185.973 Y148.645 E5.55012
G1 X185.893 Y148.424 F5400.000
G1 X186.810 Y147.183 F5400.000
G1 F931.451
G1 X187.049 Y146.894 E5.56850
G1 F931.451
G1 X187.002 Y146.145 E5.60963
G1 X187.030 Y145.770 E5.63025
G1 X187.090 Y145.398 E5.65089
G1 X187.327 Y144.786 E5.68687
G1 X187.590 Y144.358 E5.71437
G1 X187.817 Y144.095 E5.73342
G1 X188.085 Y143.830 E5.75406
G1 X188.637 Y143.475 E5.79004
G1 X189.101 Y143.283 E5.81754
G1 X189.439 Y143.204 E5.83658
G1 X189.810 Y143.147 E5.85715
G1 X190.194 Y143.157 E5.87823
G1 X190.562 Y143.198 E5.89851
G1 X190.927 Y143.292 E5.91915
G1 X191.277 Y143.431 E5.93980
G1 X191.605 Y143.616 E5.96043
G1 X191.861 Y143.794 E5.97750
G1 X192.219 Y144.127 E6.00434
G1 X192.422 Y144.385 E6.02232
G1 X192.633 Y144.698 E6.04297
G1 X192.784 Y145.043 E6.06362
G1 X192.910 Y145.398 E6.08427
G1 X192.995 Y146.042 E6.11988
G1 X192.969 Y146.708 E6.15641
G1 F931.451
G1 X192.951 Y146.894 E6.16555
G1 X193.190 Y147.183 E6.18392
M106 S255
M104 S233 ; set temperature
M140 S55 ; set bed temperature
G1 Z0.350 F5400.000
G1 X193.385 Y147.489 F5400.000
G1 F720.000
G1 X192.356 Y147.489 E6.22550
G1 X192.356 Y146.060 E6.28326
G1 X192.292 Y145.557 E6.30375
G1 X192.090 Y145.045 E6.32597
G1 X191.879 Y144.714 E6.34183
G1 X191.478 Y144.299 E6.36514
G1 X191.040 Y144.025 E6.38600
G1 X190.729 Y143.902 E6.39952
G1 X190.400 Y143.818 E6.41322
G1 X189.851 Y143.783 E6.43544
G1 X189.311 Y143.886 E6.45766
G1 X188.956 Y144.027 E6.47309
G1 X188.528 Y144.299 E6.49357
G1 X188.253 Y144.557 E6.50882
G1 X187.947 Y144.973 E6.52968
G1 X187.709 Y145.546 E6.55473
G1 X187.644 Y146.060 E6.57566
G1 X187.644 Y147.489 E6.63342
G1 X186.615 Y147.489 E6.67500
G1 X186.473 Y147.051 E6.69363
G1 X186.387 Y146.601 E6.71211
G1 X186.358 Y146.145 E6.73058
G1 X186.387 Y145.689 E6.74906
G1 X186.473 Y145.239 E6.76753
G1 X186.614 Y144.804 E6.78601
G1 X186.809 Y144.391 E6.80449
G1 X187.054 Y144.005 E6.82296
G1 X187.345 Y143.652 E6.84144
G1 X187.679 Y143.339 E6.85991
G1 X188.049 Y143.070 E6.87839
G1 X188.449 Y142.850 E6.89686
G1 X188.875 Y142.682 E6.91534
G1 X189.318 Y142.568 E6.93382
G1 X189.769 Y142.511 E6.95218
G1 X190.247 Y142.513 E6.97152
G1 X190.682 Y142.568 E6.98924
G1 X191.125 Y142.682 E7.00771
G1 X191.551 Y142.850 E7.02619
G1 X191.951 Y143.070 E7.04466
G1 X192.321 Y143.339 E7.06314
G1 X192.655 Y143.652 E7.08161
G1 X192.946 Y144.005 E7.10009
G1 X193.191 Y144.391 E7.11857
G1 X193.386 Y144.804 E7.13704
G1 X193.527 Y145.239 E7.15552
G1 X193.613 Y145.689 E7.17399
G1 X193.642 Y146.145 E7.19247
G1 X193.613 Y146.601 E7.21095
G1 X193.527 Y147.051 E7.22942
G1 X193.403 Y147.432 E7.24563
G1 X193.795 Y148.137 F5400.000
G1 F720.000
G1 X191.708 Y148.137 E7.32997
G1 X191.708 Y146.101 E7.41225
G1 X191.660 Y145.719 E7.42779
G1 X191.510 Y145.341 E7.44423
G1 X191.368 Y145.117 E7.45494
G1 X191.067 Y144.807 E7.47238
G1 X190.746 Y144.606 E7.48767
G1 X190.528 Y144.520 E7.49715
G1 X190.299 Y144.461 E7.50673
G1 X189.892 Y144.435 E7.52317
G1 X189.493 Y144.511 E7.53961
G1 X189.251 Y144.607 E7.55009
G1 X188.927 Y144.813 E7.56562
G1 X188.739 Y144.989 E7.57601
G1 X188.515 Y145.293 E7.59130
G1 X188.341 Y145.713 E7.60966
G1 X188.292 Y146.101 E7.62542
G1 X188.292 Y148.137 E7.70771
G1 X186.205 Y148.137 E7.79204
G1 X186.011 Y147.725 E7.81046
G1 X185.844 Y147.212 E7.83223
G1 X185.743 Y146.683 E7.85400
G1 X185.709 Y146.145 E7.87577
G1 X185.743 Y145.607 E7.89754
G1 X185.844 Y145.078 E7.91931
G1 X186.011 Y144.566 E7.94108
G1 X186.240 Y144.078 E7.96285
G1 X186.529 Y143.623 E7.98461
G1 X186.872 Y143.208 E8.00638
G1 X187.265 Y142.839 E8.02815
G1 X187.701 Y142.522 E8.04992
G1 X188.173 Y142.263 E8.07169
G1 X188.674 Y142.064 E8.09346
G1 X189.196 Y141.930 E8.11523
G1 X189.729 Y141.863 E8.13694
G1 X190.289 Y141.865 E8.15957
G1 X190.804 Y141.930 E8.18053
G1 X191.326 Y142.064 E8.20229
G1 X191.827 Y142.263 E8.22406
G1 X192.299 Y142.522 E8.24583
G1 X192.735 Y142.839 E8.26760
G1 X193.128 Y143.208 E8.28937
G1 X193.471 Y143.623 E8.31114
G1 X193.760 Y144.078 E8.33291
G1 X193.989 Y144.566 E8.35468
G1 X194.156 Y145.078 E8.37645
G1 X194.257 Y145.607 E8.39821
G1 X194.291 Y146.145 E8.41998
G1 X194.257 Y146.683 E8.44175
G1 X194.156 Y147.212 E8.46352
G1 X193.989 Y147.725 E8.48529
G1 X193.821 Y148.083 E8.50129
G1 X194.087 Y148.645 F5400.000
G1 F720.000
G1 X191.200 Y148.645 E8.56750
G1 X191.200 Y146.132 E8.62514
G1 X191.164 Y145.846 E8.63176
G1 X191.055 Y145.572 E8.63852
G1 X190.967 Y145.433 E8.64230
G1 X190.745 Y145.204 E8.64960
G1 X190.516 Y145.061 E8.65580
G1 X190.371 Y145.003 E8.65939
G1 X190.219 Y144.964 E8.66299
G1 X189.925 Y144.946 E8.66975
G1 X189.635 Y145.001 E8.67652
G1 X189.483 Y145.061 E8.68026
G1 X189.239 Y145.216 E8.68688
G1 X189.121 Y145.327 E8.69061
G1 X188.961 Y145.545 E8.69681
G1 X188.836 Y145.845 E8.70426
G1 X188.800 Y146.132 E8.71091
G1 X188.800 Y148.645 E8.76854
G1 X185.913 Y148.645 E8.83476
G1 X185.794 Y148.457 E8.83986
G1 X185.537 Y147.912 E8.85369
G1 X185.351 Y147.339 E8.86751
G1 X185.238 Y146.747 E8.88134
G1 X185.200 Y146.145 E8.89516
G1 X185.238 Y145.544 E8.90899
G1 X185.351 Y144.951 E8.92281
G1 X185.537 Y144.378 E8.93664
G1 X185.794 Y143.833 E8.95046
G1 X186.117 Y143.324 E8.96429
G1 X186.501 Y142.860 E8.97811
G1 X186.941 Y142.447 E8.99194
G1 X187.428 Y142.093 E9.00576
G1 X187.956 Y141.802 E9.01959
G1 X188.517 Y141.580 E9.03342
G1 X189.101 Y141.430 E9.04724
G1 X189.698 Y141.355 E9.06106
G1 X190.322 Y141.358 E9.07537
G1 X190.899 Y141.430 E9.08871
G1 X191.483 Y141.580 E9.10254
G1 X192.044 Y141.802 E9.11636
G1 X192.572 Y142.093 E9.13019
G1 X193.059 Y142.447 E9.14401
G1 X193.499 Y142.860 E9.15784
G1 X193.883 Y143.324 E9.17167
G1 X194.206 Y143.833 E9.18549
G1 X194.463 Y144.378 E9.19932
G1 X194.649 Y144.951 E9.21314
G1 X194.762 Y145.544 E9.22697
G1 X194.800 Y146.145 E9.24079
G1 X194.762 Y146.747 E9.25462
G1 X194.649 Y147.339 E9.26844
G1 X194.463 Y147.912 E9.28227
G1 X194.206 Y148.457 E9.29609
G1 X194.119 Y148.594 E9.29982
G1 X193.776 Y148.393 F5400.000
G1 X193.157 Y147.143 F5400.000
G1 F720.000
G1 X192.951 Y146.894 E9.31010
G1 X192.969 Y146.708 E9.31605
G1 F720.000
G1 X192.995 Y146.039 E9.34030
G1 X192.910 Y145.398 E9.36376
G1 X192.784 Y145.043 E9.37741
G1 X192.645 Y144.729 E9.38985
G1 X192.359 Y144.294 E9.40870
G1 X191.908 Y143.827 E9.43224
G1 X191.605 Y143.617 E9.44562
G1 X191.277 Y143.431 E9.45926
G1 X190.927 Y143.292 E9.47292
G1 X190.562 Y143.198 E9.48657
G1 X190.205 Y143.159 E9.49958
G1 X189.807 Y143.147 E9.51401
G1 X189.439 Y143.204 E9.52752
G1 X189.105 Y143.282 E9.53996
