; generated by Slic3r 1.33.8-prusa3d-win64 on 2017-05-11 at 10:45:25

; external perimeters extrusion width = 0.40mm
; perimeters extrusion width = 0.67mm
; infill extrusion width = 0.67mm
; solid infill extrusion width = 0.67mm
; top infill extrusion width = 0.67mm

M107
M80 ; turn on PSU
M140 S55
M104 S240 ; start E heating
M17; enable motors
G28 X Y ; Z ; Home
M190 S55
M109 S240
G91
G1 E5 F200
G90
G21 ; set units to millimeters
G90 ; use absolute coordinates
M82 ; use absolute distances for extrusion
G92 E0
G1 Z0.200 F5400.000
G1 E-1.50000 F1800.00000
G92 E0
G1 X128.729 Y133.604 F5400.000
G1 E1.50000 F1800.00000
G1 F803.655
G1 X129.142 Y133.238 E1.52886
G1 X129.505 Y132.952 E1.55299
G1 X130.131 Y132.518 E1.59279
G1 X130.596 Y132.241 E1.62108
G1 X131.016 Y132.023 E1.64578
G1 X131.729 Y131.709 E1.68647
G1 X132.217 Y131.534 E1.71356
G1 X132.670 Y131.399 E1.73828
G1 X133.429 Y131.225 E1.77896
G1 X133.941 Y131.145 E1.80605
G1 X134.435 Y131.096 E1.83195
G1 X135.281 Y131.072 E1.87620
G1 X135.748 Y131.091 E1.90061
G1 X136.293 Y131.144 E1.92919
G1 X136.833 Y131.228 E1.95775
G1 X137.290 Y131.326 E1.98217
G1 X138.088 Y131.554 E2.02554
G1 X138.549 Y131.722 E2.05119
G1 X138.984 Y131.906 E2.07585
G1 X139.723 Y132.283 E2.11920
G1 X140.142 Y132.534 E2.14474
G1 X140.577 Y132.829 E2.17218
G1 X141.186 Y133.308 E2.21264
G1 X141.537 Y133.623 E2.23730
G1 X141.920 Y134.006 E2.26556
G1 X142.419 Y134.583 E2.30546
G1 X142.698 Y134.949 E2.32949
G1 X143.007 Y135.407 E2.35836
G1 X143.284 Y135.872 E2.38663
G1 X143.502 Y136.292 E2.41134
G1 X143.816 Y137.004 E2.45203
G1 X143.994 Y137.498 E2.47942
G1 X144.129 Y137.951 E2.50414
G1 X144.303 Y138.710 E2.54482
G1 X144.383 Y139.223 E2.57191
G1 X144.432 Y139.716 E2.59784
G1 X144.456 Y140.557 E2.64176
G1 X144.437 Y141.025 E2.66626
G1 X144.384 Y141.574 E2.69507
G1 X144.300 Y142.114 E2.72361
G1 X144.202 Y142.571 E2.74803
G1 X143.976 Y143.364 E2.79109
G1 X143.807 Y143.829 E2.81699
G1 X143.624 Y144.260 E2.84141
G1 X143.248 Y144.999 E2.88476
G1 X142.996 Y145.420 E2.91037
G1 X142.702 Y145.854 E2.93775
G1 X142.224 Y146.463 E2.97821
G1 X141.909 Y146.814 E3.00286
G1 X141.535 Y147.189 E3.03054
G1 X140.950 Y147.695 E3.07093
G1 X140.579 Y147.979 E3.09536
G1 X140.126 Y148.285 E3.12392
G1 X139.655 Y148.565 E3.15251
G1 X139.241 Y148.780 E3.17691
G1 X138.529 Y149.096 E3.21760
G1 X138.036 Y149.273 E3.24499
G1 X137.582 Y149.408 E3.26971
G1 X136.823 Y149.583 E3.31039
G1 X136.305 Y149.664 E3.33777
G1 X135.817 Y149.713 E3.36340
G1 X134.977 Y149.737 E3.40733
G1 X134.503 Y149.718 E3.43212
G1 X133.960 Y149.666 E3.46063
G1 X133.414 Y149.581 E3.48947
G1 X132.957 Y149.483 E3.51390
G1 X132.159 Y149.255 E3.55725
G1 X131.697 Y149.087 E3.58291
G1 X131.268 Y148.905 E3.60727
G1 X130.528 Y148.529 E3.65064
G1 X130.108 Y148.277 E3.67623
G1 X129.674 Y147.983 E3.70361
G1 X129.065 Y147.505 E3.74407
G1 X128.714 Y147.190 E3.76873
G1 X128.339 Y146.816 E3.79640
G1 X127.832 Y146.232 E3.83679
G1 X127.549 Y145.860 E3.86122
G1 X127.243 Y145.407 E3.88979
G1 X126.963 Y144.937 E3.91837
G1 X126.748 Y144.522 E3.94277
G1 X126.434 Y143.815 E3.98318
G1 X126.255 Y143.317 E4.01085
G1 X126.121 Y142.869 E4.03528
G1 X125.946 Y142.110 E4.07595
G1 X125.865 Y141.592 E4.10334
G1 X125.816 Y141.104 E4.12897
G1 X125.791 Y140.269 E4.17260
G1 X125.808 Y139.808 E4.19673
G1 X125.853 Y139.314 E4.22262
G1 X125.988 Y138.494 E4.26607
G1 X126.092 Y138.045 E4.29014
G1 X126.248 Y137.515 E4.31899
G1 X126.432 Y137.001 E4.34754
G1 X126.616 Y136.565 E4.37225
G1 X126.993 Y135.819 E4.41590
G1 X127.248 Y135.394 E4.44182
G1 X127.535 Y134.969 E4.46858
G1 X128.015 Y134.356 E4.50928
G1 X128.330 Y134.003 E4.53400
G1 X128.685 Y133.646 E4.56031
G1 X129.162 Y134.059 F5400.000
G1 F803.655
G1 X129.548 Y133.718 E4.58722
G1 X129.890 Y133.448 E4.60997
G1 X130.466 Y133.049 E4.64659
G1 X130.905 Y132.789 E4.67323
G1 X131.295 Y132.586 E4.69624
G1 X131.951 Y132.297 E4.73369
G1 X132.416 Y132.130 E4.75949
G1 X132.839 Y132.004 E4.78252
G1 X133.537 Y131.844 E4.81996
G1 X134.020 Y131.769 E4.84548
G1 X134.485 Y131.722 E4.86989
G1 X135.265 Y131.701 E4.91068
G1 X135.700 Y131.718 E4.93342
G1 X136.213 Y131.767 E4.96034
G1 X136.722 Y131.846 E4.98724
G1 X137.152 Y131.939 E5.01026
G1 X137.888 Y132.149 E5.05022
G1 X138.732 Y132.482 E5.09762
G1 X139.409 Y132.827 E5.13730
G1 X139.804 Y133.063 E5.16135
G1 X140.213 Y133.341 E5.18722
G1 X140.774 Y133.782 E5.22446
G1 X141.105 Y134.079 E5.24770
G1 X141.465 Y134.440 E5.27433
G1 X141.810 Y134.829 E5.30151
G1 X142.080 Y135.171 E5.32426
G1 X142.479 Y135.747 E5.36088
G1 X142.739 Y136.185 E5.38751
G1 X142.942 Y136.577 E5.41053
G1 X143.231 Y137.232 E5.44798
G1 X143.398 Y137.697 E5.47379
G1 X143.524 Y138.120 E5.49681
G1 X143.684 Y138.818 E5.53425
G1 X143.759 Y139.301 E5.55978
G1 X143.805 Y139.761 E5.58393
G1 X143.828 Y140.541 E5.62470
G1 X143.810 Y140.982 E5.64778
G1 X143.761 Y141.494 E5.67465
G1 X143.682 Y142.003 E5.70153
G1 X143.589 Y142.434 E5.72456
G1 X143.379 Y143.169 E5.76451
G1 X143.050 Y144.003 E5.81136
G1 X142.701 Y144.690 E5.85159
G1 X142.467 Y145.081 E5.87544
G1 X142.190 Y145.490 E5.90124
G1 X141.749 Y146.051 E5.93847
G1 X141.453 Y146.382 E5.96172
G1 X141.100 Y146.735 E5.98779
G1 X140.562 Y147.201 E6.02496
G1 X140.212 Y147.469 E6.04799
G1 X139.786 Y147.757 E6.07490
G1 X139.347 Y148.017 E6.10154
G1 X138.951 Y148.223 E6.12483
G1 X138.300 Y148.510 E6.16200
G1 X137.836 Y148.677 E6.18780
G1 X137.408 Y148.805 E6.21111
G1 X136.710 Y148.965 E6.24855
G1 X136.227 Y149.040 E6.27407
G1 X135.767 Y149.086 E6.29823
G1 X134.992 Y149.109 E6.33871
G1 X134.546 Y149.091 E6.36207
G1 X134.034 Y149.042 E6.38894
G1 X133.525 Y148.963 E6.41583
G1 X133.094 Y148.870 E6.43885
G1 X132.359 Y148.660 E6.47880
G1 X131.525 Y148.331 E6.52566
G1 X130.843 Y147.985 E6.56562
G1 X130.447 Y147.748 E6.58974
G1 X130.038 Y147.471 E6.61553
G1 X129.477 Y147.031 E6.65277
G1 X129.146 Y146.734 E6.67602
G1 X128.793 Y146.381 E6.70208
G1 X128.330 Y145.848 E6.73898
G1 X128.063 Y145.497 E6.76201
G1 X127.774 Y145.071 E6.78891
G1 X127.510 Y144.628 E6.81584
G1 X127.308 Y144.237 E6.83884
G1 X127.020 Y143.586 E6.87603
G1 X126.851 Y143.117 E6.90209
G1 X126.725 Y142.694 E6.92512
G1 X126.564 Y141.996 E6.96257
G1 X126.488 Y141.508 E6.98837
G1 X126.442 Y141.053 E7.01224
G1 X126.419 Y140.284 E7.05245
G1 X126.477 Y139.389 E7.09931
G1 X126.600 Y138.634 E7.13926
G1 X126.699 Y138.210 E7.16203
G1 X126.845 Y137.710 E7.18922
G1 X127.018 Y137.226 E7.21610
G1 X127.192 Y136.816 E7.23940
G1 X127.540 Y136.128 E7.27963
G1 X127.778 Y135.732 E7.30377
G1 X128.051 Y135.328 E7.32927
G1 X128.490 Y134.767 E7.36645
G1 X129.119 Y134.101 E7.41434
G1 E5.91434 F1800.00000
G92 E0
G1 X134.171 Y138.649 F5400.000
G1 E1.50000 F1800.00000
G1 F803.655
G1 X134.616 Y138.473 E1.52502
G1 X134.998 Y138.413 E1.54521
G1 X135.374 Y138.424 E1.56484
G1 X135.740 Y138.506 E1.58447
G1 X136.085 Y138.656 E1.60409
G1 X136.396 Y138.867 E1.62372
G1 X136.661 Y139.132 E1.64334
G1 X136.879 Y139.452 E1.66354
G1 X137.055 Y139.897 E1.68856
G1 X137.115 Y140.279 E1.70876
G1 X137.104 Y140.655 E1.72838
G1 X137.022 Y141.021 E1.74801
G1 X136.872 Y141.366 E1.76763
G1 X136.661 Y141.677 E1.78726
G1 X136.396 Y141.942 E1.80688
G1 X136.076 Y142.160 E1.82708
G1 X135.631 Y142.336 E1.85210
G1 X135.249 Y142.396 E1.87230
G1 X134.873 Y142.385 E1.89192
G1 X134.507 Y142.303 E1.91155
G1 X134.162 Y142.153 E1.93117
G1 X133.851 Y141.942 E1.95080
G1 X133.586 Y141.677 E1.97043
G1 X133.368 Y141.357 E1.99062
G1 X133.192 Y140.912 E2.01564
G1 X133.132 Y140.530 E2.03584
G1 X133.143 Y140.154 E2.05547
G1 X133.225 Y139.788 E2.07509
G1 X133.375 Y139.443 E2.09472
G1 X133.586 Y139.132 E2.11434
G1 X133.851 Y138.867 E2.13397
G1 X134.121 Y138.683 E2.15103
G1 X134.403 Y139.087 F5400.000
G1 F803.655
G1 X134.747 Y138.951 E2.16202
G1 X135.029 Y138.907 E2.17050
G1 X135.312 Y138.915 E2.17889
G1 X135.587 Y138.977 E2.18728
G1 X135.847 Y139.089 E2.19566
G1 X136.080 Y139.248 E2.20405
G1 X136.280 Y139.448 E2.21244
G1 X136.440 Y139.684 E2.22092
G1 X136.577 Y140.028 E2.23191
G1 X136.621 Y140.310 E2.24039
G1 X136.613 Y140.593 E2.24878
G1 X136.551 Y140.868 E2.25716
G1 X136.439 Y141.128 E2.26555
G1 X136.280 Y141.361 E2.27394
G1 X136.080 Y141.561 E2.28233
G1 X135.844 Y141.722 E2.29081
G1 X135.500 Y141.858 E2.30179
G1 X135.218 Y141.902 E2.31028
G1 X134.935 Y141.894 E2.31866
G1 X134.660 Y141.832 E2.32705
G1 X134.400 Y141.720 E2.33544
G1 X134.167 Y141.561 E2.34383
G1 X133.967 Y141.361 E2.35221
G1 X133.806 Y141.125 E2.36070
G1 X133.670 Y140.781 E2.37168
G1 X133.626 Y140.499 E2.38016
G1 X133.634 Y140.216 E2.38855
G1 X133.696 Y139.941 E2.39694
G1 X133.808 Y139.681 E2.40533
G1 X133.967 Y139.448 E2.41371
G1 X134.167 Y139.248 E2.42210
G1 X134.353 Y139.121 E2.42880
G1 X134.419 Y138.718 F5400.000
G1 X132.958 Y137.804 F5400.000
G1 F803.655
G1 X133.310 Y137.548 E2.45157
G1 X133.692 Y137.338 E2.47434
G1 X134.076 Y137.187 E2.49587
G1 X134.489 Y137.081 E2.51817
G1 X134.921 Y137.026 E2.54092
G1 X135.119 Y137.020 E2.55128
G1 X135.547 Y137.047 E2.57368
G1 X136.159 Y137.182 E2.60640
G1 X136.574 Y137.347 E2.62974
G1 X136.744 Y137.433 E2.63971
G1 X137.122 Y137.673 E2.66306
G1 X137.272 Y137.790 E2.67303
G1 X137.598 Y138.096 E2.69637
G1 X137.724 Y138.239 E2.70634
G1 X137.980 Y138.591 E2.72911
G1 X138.190 Y138.973 E2.75188
G1 X138.341 Y139.357 E2.77340
G1 X138.447 Y139.770 E2.79571
G1 X138.501 Y140.196 E2.81813
G1 X138.502 Y140.606 E2.83955
G1 X138.447 Y141.039 E2.86234
G1 X138.341 Y141.452 E2.88464
G1 X138.274 Y141.641 E2.89512
G1 X138.088 Y142.037 E2.91798
G1 X137.868 Y142.385 E2.93947
G1 X137.590 Y142.721 E2.96224
G1 X137.272 Y143.019 E2.98502
G1 X137.122 Y143.136 E2.99499
G1 X136.753 Y143.370 E3.01777
G1 X136.366 Y143.553 E3.04017
G1 X136.179 Y143.620 E3.05053
G1 X135.757 Y143.728 E3.07328
G1 X135.332 Y143.782 E3.09568
G1 X134.915 Y143.782 E3.11746
G1 X134.489 Y143.728 E3.13988
G1 X134.076 Y143.622 E3.16219
G1 X133.887 Y143.555 E3.17267
G1 X133.491 Y143.369 E3.19553
G1 X133.319 Y143.267 E3.20597
G1 X132.958 Y143.006 E3.22925
G1 X132.815 Y142.879 E3.23924
G1 X132.509 Y142.553 E3.26258
G1 X132.392 Y142.403 E3.27255
G1 X132.158 Y142.034 E3.29533
G1 X131.975 Y141.647 E3.31773
G1 X131.908 Y141.460 E3.32809
G1 X131.800 Y141.038 E3.35084
G1 X131.746 Y140.613 E3.37324
G1 X131.746 Y140.196 E3.39503
G1 X131.800 Y139.770 E3.41744
G1 X131.906 Y139.355 E3.43985
G1 X131.973 Y139.168 E3.45021
G1 X132.158 Y138.774 E3.47295
G1 X132.392 Y138.406 E3.49572
G1 X132.509 Y138.256 E3.50569
G1 X132.913 Y137.843 E3.53584
G1 X132.587 Y137.474 F5400.000
G1 F803.655
G1 X133.046 Y137.131 E3.55286
G1 X133.475 Y136.895 E3.56741
G1 X133.931 Y136.715 E3.58196
G1 X134.397 Y136.596 E3.59623
G1 X134.883 Y136.534 E3.61077
G1 X135.128 Y136.527 E3.61805
G1 X135.609 Y136.558 E3.63237
G1 X136.091 Y136.650 E3.64693
G1 X136.319 Y136.716 E3.65397
G1 X136.777 Y136.897 E3.66862
G1 X136.989 Y137.005 E3.67566
G1 X137.405 Y137.269 E3.69031
G1 X137.593 Y137.415 E3.69735
G1 X137.952 Y137.752 E3.71200
G1 X138.109 Y137.930 E3.71904
G1 X138.397 Y138.327 E3.73360
G1 X138.633 Y138.756 E3.74815
G1 X138.813 Y139.212 E3.76270
G1 X138.932 Y139.678 E3.77697
G1 X138.993 Y140.157 E3.79130
G1 X138.994 Y140.645 E3.80579
G1 X138.932 Y141.131 E3.82034
G1 X138.813 Y141.597 E3.83461
G1 X138.730 Y141.829 E3.84195
G1 X138.524 Y142.267 E3.85632
G1 X138.262 Y142.681 E3.87085
G1 X137.950 Y143.059 E3.88541
G1 X137.593 Y143.394 E3.89996
G1 X137.405 Y143.540 E3.90700
G1 X136.991 Y143.802 E3.92155
G1 X136.555 Y144.008 E3.93588
G1 X136.325 Y144.091 E3.94316
G1 X135.850 Y144.213 E3.95770
G1 X135.371 Y144.274 E3.97203
G1 X134.876 Y144.274 E3.98674
G1 X134.397 Y144.213 E4.00107
G1 X133.931 Y144.094 E4.01534
G1 X133.699 Y144.011 E4.02268
G1 X133.261 Y143.805 E4.03705
G1 X133.048 Y143.680 E4.04437
G1 X132.650 Y143.390 E4.05899
G1 X132.471 Y143.233 E4.06605
G1 X132.134 Y142.874 E4.08069
G1 X131.988 Y142.686 E4.08774
G1 X131.726 Y142.272 E4.10229
G1 X131.520 Y141.836 E4.11662
G1 X131.437 Y141.606 E4.12389
G1 X131.315 Y141.131 E4.13844
G1 X131.254 Y140.652 E4.15277
G1 X131.254 Y140.157 E4.16748
G1 X131.315 Y139.678 E4.18181
G1 X131.435 Y139.210 E4.19614
G1 X131.517 Y138.980 E4.20341
G1 X131.726 Y138.537 E4.21796
G1 X131.988 Y138.123 E4.23251
G1 X132.134 Y137.935 E4.23956
G1 X132.542 Y137.514 E4.25698
G1 X132.963 Y137.609 F5400.000
G1 X133.392 Y138.346 F5400.000
G1 F803.655
G1 X133.885 Y138.020 E4.29215
G1 X134.394 Y137.818 E4.32480
G1 X134.975 Y137.718 E4.35989
G1 X135.460 Y137.736 E4.38881
G1 X135.934 Y137.839 E4.41769
G1 X136.400 Y138.037 E4.44784
G1 X136.821 Y138.318 E4.47800
G1 X137.182 Y138.673 E4.50815
G1 X137.508 Y139.166 E4.54332
G1 X137.710 Y139.675 E4.57597
G1 X137.809 Y140.251 E4.61078
G1 X137.793 Y140.706 E4.63787
G1 X137.678 Y141.249 E4.67095
G1 X137.474 Y141.713 E4.70113
G1 X137.171 Y142.144 E4.73250
G1 X136.821 Y142.491 E4.76183
G1 X136.419 Y142.762 E4.79071
G1 X135.853 Y142.991 E4.82709
G1 X135.277 Y143.090 E4.86190
G1 X134.822 Y143.074 E4.88900
G1 X134.279 Y142.959 E4.92207
G1 X133.815 Y142.755 E4.95226
G1 X133.392 Y142.464 E4.98282
G1 X133.037 Y142.102 E5.01299
G1 X132.766 Y141.700 E5.04188
G1 X132.537 Y141.134 E5.07826
G1 X132.438 Y140.558 E5.11307
G1 X132.454 Y140.103 E5.14017
G1 X132.570 Y139.558 E5.17334
G1 X132.766 Y139.109 E5.20256
G1 X133.037 Y138.707 E5.23142
G1 X133.348 Y138.387 E5.25800
M106 S255
M104 S230 ; set temperature
M140 S30 ; set bed temperature
G1 Z0.400 F5400.000
G1 X133.812 Y138.912 F5400.000
G1 F720.000
G1 X133.950 Y138.790 E5.26767
G1 X134.274 Y138.599 E5.28730
G1 X134.637 Y138.468 E5.30748
G1 X135.109 Y138.408 E5.33233
G1 X135.497 Y138.444 E5.35269
G1 X135.858 Y138.549 E5.37234
G1 X136.193 Y138.719 E5.39196
G1 X136.498 Y138.956 E5.41216
G1 X136.804 Y139.325 E5.43718
G1 X136.979 Y139.670 E5.45738
G1 X137.084 Y140.031 E5.47700
G1 X137.119 Y140.405 E5.49663
G1 X137.084 Y140.778 E5.51625
G1 X136.979 Y141.140 E5.53590
G1 X136.802 Y141.487 E5.55626
G1 X136.498 Y141.853 E5.58111
G1 X136.193 Y142.090 E5.60129
G1 X135.858 Y142.260 E5.62092
G1 X135.497 Y142.365 E5.64054
G1 X135.123 Y142.400 E5.66017
G1 X134.749 Y142.365 E5.67979
G1 X134.389 Y142.260 E5.69942
G1 X134.044 Y142.085 E5.71962
G1 X133.675 Y141.779 E5.74464
G1 X133.438 Y141.474 E5.76484
G1 X133.268 Y141.139 E5.78446
G1 X133.163 Y140.778 E5.80409
G1 X133.128 Y140.405 E5.82371
G1 X133.163 Y140.031 E5.84334
G1 X133.268 Y139.670 E5.86296
G1 X133.438 Y139.335 E5.88259
G1 X133.669 Y139.038 E5.90221
G1 X133.767 Y138.952 E5.90903
G1 X134.092 Y139.322 F5400.000
G1 F720.000
G1 X134.241 Y139.190 E5.91493
G1 X134.484 Y139.046 E5.92332
G1 X134.753 Y138.950 E5.93179
G1 X135.117 Y138.903 E5.94270
G1 X135.405 Y138.930 E5.95126
G1 X135.676 Y139.009 E5.95965
G1 X135.928 Y139.137 E5.96804
G1 X136.153 Y139.312 E5.97652
G1 X136.389 Y139.597 E5.98751
G1 X136.519 Y139.852 E5.99599
G1 X136.598 Y140.123 E6.00438
G1 X136.624 Y140.405 E6.01277
G1 X136.598 Y140.686 E6.02115
G1 X136.519 Y140.957 E6.02954
G1 X136.388 Y141.214 E6.03811
G1 X136.153 Y141.497 E6.04901
G1 X135.928 Y141.672 E6.05749
G1 X135.676 Y141.800 E6.06588
G1 X135.405 Y141.879 E6.07427
G1 X135.123 Y141.905 E6.08265
G1 X134.842 Y141.879 E6.09104
G1 X134.571 Y141.800 E6.09943
G1 X134.316 Y141.670 E6.10791
G1 X134.031 Y141.434 E6.11890
G1 X133.856 Y141.209 E6.12738
G1 X133.728 Y140.957 E6.13577
G1 X133.649 Y140.686 E6.14415
G1 X133.623 Y140.405 E6.15254
G1 X133.649 Y140.123 E6.16093
G1 X133.728 Y139.852 E6.16932
G1 X133.856 Y139.600 E6.17770
G1 X134.047 Y139.361 E6.18679
G1 X134.037 Y139.131 F5400.000
G1 E4.68679 F1800.00000
G92 E0
G1 X132.390 Y138.155 F5400.000
G1 E1.50000 F1800.00000
G1 F720.000
G1 X132.708 Y137.817 E1.52425
G1 X132.859 Y137.684 E1.53473
G1 X133.236 Y137.410 E1.55909
G1 X133.409 Y137.308 E1.56957
G1 X133.829 Y137.110 E1.59384
G1 X134.039 Y137.035 E1.60550
G1 X134.460 Y136.928 E1.62818
G1 X134.910 Y136.871 E1.65190
G1 X135.133 Y136.865 E1.66356
G1 X135.567 Y136.893 E1.68624
G1 X136.014 Y136.978 E1.71006
G1 X136.207 Y137.034 E1.72054
G1 X136.641 Y137.206 E1.74490
G1 X136.819 Y137.297 E1.75538
G1 X137.213 Y137.547 E1.77974
G1 X137.372 Y137.670 E1.79022
G1 X137.711 Y137.989 E1.81458
G1 X137.844 Y138.140 E1.82507
G1 X138.118 Y138.517 E1.84943
G1 X138.220 Y138.690 E1.85991
