;Project BedLevelingSensor-F.Cu
;Created by Estlcam version 10 build 10,037
;Machining time about 00:09:41 hours

G90
M03 S24000
G1 X52 Y12 F4000
G1 Z0 ; premove
M84 Z
M00; wait to confirm everything is aligned
M17
;G92 X Y Z
G0 Z1.0000 F500

G0 X0.0000 Y0.0000 Z0.0000 F3000
G0 Z1.0000 F500


;No. 1: Part 44
G0 X49.9417 Y40.1125 F3000
G0 Z0.5000 F500
G1 Z-0.1500 F120 S24000
G1 X61.7000 F180
G1 X56.5419
G1 Y40.3525
G1 X49.9410
G1 X49.9403 Y40.5925
G1 X56.3015
G1 X50.3359
G1 Y40.8325
G1 X49.9395
G1 X49.9388 Y41.0725
G1 X50.1690
G1 Y41.3125
G1 X49.9381
G1 X49.9374 Y41.5525
G1 X50.1690
G1 Y41.7925
G1 X49.9367
G1 X49.9360 Y42.0325
G1 X50.1690
G1 Y42.2725
G1 X49.9353
G1 X49.9346 Y42.5125
G1 X50.1690
G1 Y42.7525
G1 X49.9339
G1 X49.9332 Y42.9925
G1 X50.1690
G1 X49.9325 Y43.2325
G1 X53.5323
G1 X53.5322 Y42.9925
G1 X53.0290
G1 Y42.7525
G1 X53.5321
G1 X53.4279 Y42.5125
G1 X53.0290
G0 Z1.0000 F500
G0 X59.1847 Y40.1125 F3000
G0 Z0.5000 F500
G1 Z-0.1500 F120
G1 Y40.3525 F180
G1 X61.7000
G1 Y40.5925
G1 X59.4254
G1 X59.6661 Y40.8325
G1 X61.7000
G1 Y41.0725
G1 X59.9069
G1 X60.7605
G1 Y41.3125
G1 X61.7000
G1 Y41.5525
G1 X60.7605
G1 X60.7604 Y41.7925
G1 X61.7000
G1 Y42.0325
G1 X60.7603
G1 X60.7602 Y42.2725
G1 X61.7000
G1 Y42.5125
G1 X60.7601
G1 X61.7000
G1 Y42.7525
G1 X58.3016
G1 X58.3017 Y42.5125
G1 X59.2021
G1 X59.2013 Y42.2725
G1 X58.3019
G1 X58.2996 Y42.0325
G1 X59.2011
G1 X59.1279 Y41.7925
G1 X56.7887
G1 X56.8401 Y41.5525
G1 X58.8879
G1 X58.6479 Y41.3125
G1 X57.0801
G0 Z1.0000 F500
G0 X56.0611 Y40.5925 F3000
G0 Z0.5000 F500
G1 Z-0.1500 F120
G1 Y40.8325 F180
G1 X52.8540
G1 X53.0290 Y41.0725
G1 X55.3280
G1 X55.1393 Y41.3125
G1 X53.0290
G1 Y41.5525
G1 X55.0527
G1 X55.0454 Y41.7925
G1 X53.9251
G1 X54.4896
G1 Y42.0325
G1 X54.8050
G1 X54.8025 Y42.2725
G1 X54.4919
G1 X54.4917 Y42.5125
G1 X54.8022
G1 X54.7593 Y42.7525
G1 X54.4916
G1 X54.4915 Y42.9925
G1 X54.7808
G1 X54.8002 Y43.2325
G1 X54.4913
G1 X54.4912 Y43.4725
G1 X54.8016
G1 X54.8339 Y43.7125
G1 X54.4596
G1 Y43.9525
G1 X57.3920
G1 X49.9303
G1 X49.9311 Y43.7125
G1 X53.5639
G1 X53.5324 Y43.4725
G1 X49.9318
G0 Z1.0000 F500
G0 X57.0288 Y41.7925 F3000
G0 Z0.5000 F500
G1 Z-0.1500 F120
G1 Y42.0325 F180
G1 X57.3450
G1 X57.3428 Y42.2725
G1 X57.0331
G1 X57.0343 Y42.5125
G1 X57.3428
G1 X57.3427 Y42.7525
G1 X57.0755
G1 X57.0576 Y42.9925
G1 X57.3426
G1 Y43.2325
G1 X57.0320
G1 Y43.4725
G1 X57.3425
G1 X57.3743 Y43.7125
G1 X56.9996
G0 Z1.0000 F500
G0 X61.7000 Y42.7525 F3000
G0 Z0.5000 F500
G1 Z-0.1500 F120
G1 Y42.9925 F180
G1 X58.3015
G1 X58.3013 Y43.2325
G1 X61.7000
G1 X59.2034
G1 Y43.4725
G1 X58.3012
G1 X58.2696 Y43.7125
G1 X59.2010
G1 Y43.9525
G1 X58.2520
G1 X58.2474 Y44.1925
G1 X59.2010
G1 Y44.4325
G1 X58.1359
G1 X57.8971 Y44.6725
G1 X59.2010
G1 Y44.9125
G1 X59.5510
G1 X57.6571
G1 X57.4171 Y45.1525
G1 X59.5510
G1 Y45.3925
G1 X53.8751
G1 X53.6351 Y45.6325
G1 X59.5510
G1 Y45.8725
G1 X53.3951
G1 X53.1551 Y46.1125
G1 X54.3592
G1 X54.0980 Y46.3525
G1 X53.0289
G1 X53.0286 Y46.5925
G1 X53.8581
G1 X53.6189 Y46.8325
G1 X53.0283
G1 X53.0179 Y47.0725
G1 X53.4992
G1 X53.4820 Y47.3125
G1 X49.9204
G1 X49.9212 Y47.0725
G1 X50.1799
G1 X50.1694 Y46.8325
G1 X49.9219
G1 X49.9226 Y46.5925
G1 X50.1694
G1 X50.1693 Y46.3525
G1 X49.9233
G1 X49.9240 Y46.1125
G1 X50.1692
G1 Y45.8725
G1 X49.9247
G1 X49.9254 Y45.6325
G1 X50.1691
G1 Y45.3925
G1 X49.9261
G1 X49.9268 Y45.1525
G1 X50.1690
G1 X50.1993 Y44.9125
G1 X49.9275
G1 X49.9282 Y44.6725
G1 X53.3779
G1 X49.9289
G1 Y44.4325
G1 X56.9199
G1 X57.1599 Y44.1925
G1 X49.9296
G0 Z1.0000 F500
G0 X60.7592 Y43.2325 F3000
G0 Z0.5000 F500
G1 Z-0.1500 F120
G1 Y43.4725 F180
G1 X61.7000
G1 Y43.7125
G1 X60.7609
G1 X60.7607 Y43.9525
G1 X61.7000
G1 Y44.1925
G1 X60.7605
G1 X60.7603 Y44.4325
G1 X61.7000
G1 Y44.6725
G1 X60.7601
G1 Y44.9125
G1 X60.4110
G1 X61.7000
G1 Y45.1525
G1 X60.4110
G1 Y45.3925
G1 X61.7000
G1 Y45.6325
G1 X60.4110
G1 Y45.8725
G1 X61.7000
G1 Y46.1125
G1 X60.4110
G1 Y46.3525
G1 X61.7000
G1 Y46.5925
G1 X60.6301
G1 X60.8701 Y46.8325
G1 X61.7000
G1 Y47.0725
G1 X61.0958
G1 X61.1725 Y47.3125
G1 X61.7000
G1 Y47.5525
G1 X61.1730
G1 Y47.7925
G1 X61.7000
G1 Y48.0325
G1 X61.1730
G1 Y48.2725
G1 X61.7000
G1 Y48.5125
G1 X61.1730
G1 Y48.7525
G1 X61.7000
G1 Y48.9925
G1 X61.1730
G1 Y49.2325
G1 X61.7000
G1 Y49.4725
G1 X61.1730
G1 Y49.7125
G1 X61.7000
G1 Y49.9525
G1 X61.1730
G1 Y50.1925
G1 X61.7000
G1 Y50.4325
G1 X61.1730
G1 Y50.6725
G1 X61.7000
G1 Y50.9125
G1 X61.1527
G1 X60.9851 Y51.1525
G1 X61.7000
G1 Y51.3925
G1 X60.8650
G1 Y51.6325
G1 X61.7000
G1 Y51.8725
G1 X60.8650
G1 X61.7000
G1 Y52.1125
G1 X51.8750
G1 Y51.8725
G1 X59.6050
G1 Y51.6325
G1 X53.3720
G1 Y51.3925
G1 X53.8504
G0 Z1.0000 F500
G0 X55.7306 Y43.9525 F3000
G0 Z0.5000 F500
G1 Z-0.1500 F120
G1 Y43.7125 F180
G1 X56.1043
G1 X56.0722 Y43.4725
G1 X55.7620
G0 Z1.0000 F500
G0 X57.7286 Y45.8725 F3000
G0 Z0.5000 F500
G1 Z-0.1500 F120
G1 Y46.1125 F180
G1 X59.5510
G1 Y46.3525
G1 X57.9896
G1 X58.2270 Y46.5925
G1 X59.5532
G1 X59.6545 Y46.8325
G1 X58.3386
G1 X58.3520 Y47.0725
G1 X59.8929
G1 X60.1329 Y47.3125
G1 X58.3520
G1 Y47.5525
G1 X60.3130
G1 Y47.7925
G1 X58.3520
G1 X58.3676 Y48.0325
G1 X60.3130
G1 Y48.2725
G1 X58.5582
G1 X58.6060 Y48.5125
G1 X58.9319
G0 Z1.0000 F500
G0 X53.4820 Y47.3125 F3000
G0 Z0.5000 F500
G1 Z-0.1500 F120
G1 Y47.5525 F180
G1 X49.9197
G1 X49.9190 Y47.7925
G1 X52.1740
G1 X51.9099 Y48.0325
G1 X49.9183
G1 X49.9176 Y48.2725
G1 X51.6699
G1 X51.4299 Y48.5125
G1 X49.9169
G1 X49.9162 Y48.7525
G1 X51.1899
G1 X50.9511 Y48.9925
G1 X49.9155
G1 X49.9148 Y49.2325
G1 X50.8319
G1 X50.8150 Y49.4725
G1 X49.9141
G1 X49.9134 Y49.7125
G1 X50.8150
G1 Y49.9525
G1 X49.9127
G1 X49.9120 Y50.1925
G1 X50.8150
G1 Y50.4325
G1 X49.9112
G1 X49.9105 Y50.6725
G1 X50.8150
G1 Y50.9125
G1 X49.9098
G1 X49.9091 Y51.1525
G1 X50.8150
G1 Y51.3925
G1 X49.9084
G1 X49.9077 Y51.6325
G1 X50.8150
G1 Y51.8725
G1 X49.9070
G1 X49.9063 Y52.1125
G1 X50.8150
G1 Y52.3525
G1 X49.9056
G1 X49.9049 Y52.5925
G1 X50.8150
G1 Y52.8325
G1 X49.9042
G1 X49.9035 Y53.0725
G1 X50.8150
G1 Y53.3125
G1 X49.9028
G1 X49.9020 Y53.5525
G1 X50.8150
G1 Y53.7925
G1 X49.9013
G1 X49.9006 Y54.0325
G1 X50.8150
G1 Y54.2725
G1 X49.8999
G1 X49.8992 Y54.5125
G1 X50.8150
G1 Y54.7525
G1 X49.8985
G1 X49.8978 Y54.9925
G1 X50.8150
G1 Y55.2325
G1 X49.8971
G1 X49.8964 Y55.4725
G1 X50.8150
G1 Y55.7125
G1 X49.8957
G1 X49.8950 Y55.9525
G1 X50.8150
G1 Y56.1925
G1 X49.8943
G1 X49.8936 Y56.4325
G1 X50.8150
G1 X50.2860
G1 Y56.6725
G1 X49.8928
G1 X49.8921 Y56.9125
G1 X50.2861
G1 X50.2862 Y57.1525
G1 X49.8914
G1 X49.8907 Y57.3925
G1 X50.2862
G1 X50.2863 Y57.6325
G1 X49.8900
G1 X49.8893 Y57.8725
G1 X50.2864
G1 Y58.1125
G1 X49.8886
G1 X49.8879 Y58.3525
G1 X53.8382
G1 X53.8356 Y58.1125
G1 X51.8960
G1 Y57.8725
G1 X53.8345
G1 X53.8334 Y57.6325
G1 X51.8960
G1 Y57.3925
G1 X53.0083
G1 X52.7200
G1 Y57.1525
G1 X51.8960
G1 Y56.9125
G1 X52.5892
G1 X52.5381 Y56.6725
G1 X51.8960
G1 X51.8750 Y56.4325
G1 X52.4750
G1 X52.2724 Y56.1925
G1 X51.8750
G1 Y55.9525
G1 X52.2125
G1 X52.2120 Y55.7125
G1 X51.8750
G1 Y55.4725
G1 X52.2120
G1 Y55.2325
G1 X51.8750
G1 Y54.9925
G1 X52.2120
G1 Y54.7525
G1 X51.8750
G1 Y54.5125
G1 X52.2120
G1 Y54.2725
G1 X51.8750
G1 Y54.0325
G1 X52.2120
G1 X52.1124 Y53.7925
G1 X51.8750
G1 Y53.5525
G1 X52.1123
G1 Y53.3125
G1 X51.8750
G1 Y53.0725
G1 X52.1122
G1 X52.1121 Y52.8325
G1 X51.8750
G1 Y52.5925
G1 X52.1186
G1 X51.8750 Y52.3525
G1 X61.7000
G1 Y52.5925
G1 X53.3656
G1 X53.3715 Y52.8325
G1 X59.6166
G1 X58.8071
G1 Y53.0725
G1 X53.3714
G1 X53.3713 Y53.3125
G1 X58.4539
G1 X58.2139 Y53.5525
G1 X53.3712
G1 X53.3711 Y53.7925
G1 X57.9739
G1 X57.7339 Y54.0325
G1 X53.2720
G1 Y54.2725
G1 X57.4939
G1 X57.2539 Y54.5125
G1 X53.2720
G1 Y54.7525
G1 X57.0139
G1 X56.7739 Y54.9925
G1 X53.2720
G1 Y55.2325
G1 X56.5339
G1 X56.3892 Y55.4725
G1 X53.2720
G1 Y55.7125
G1 X56.3760
G1 Y55.9525
G1 X53.9888
G1 X54.1824 Y56.1925
G1 X56.3760
G1 X55.1255
G1 Y56.4325
G1 X54.6759
G1 X54.7000 Y56.6725
G1 X55.1020
G1 Y56.9125
G1 X54.7000
G1 Y57.1525
G1 X55.1021
G1 Y57.3925
G1 X54.7000
G1 Y57.6325
G1 X55.1021
G1 Y57.8725
G1 X54.7032
G1 X54.7068 Y58.1125
G1 X55.1021
G1 Y58.3525
G1 X54.7083
G1 X54.9825
G1 Y58.5925
G1 X49.8872
G1 X49.8865 Y58.8325
G1 X54.9360
G1 X50.2918
G1 Y59.0725
G1 X49.8858
G1 X49.8851 Y59.3125
G1 X50.2861
G1 Y59.5525
G1 X49.8844
G1 X49.8836 Y59.7925
G1 X50.2862
G1 X50.2863 Y60.0325
G1 X49.8829
G1 X49.8822 Y60.2725
G1 X50.2863
G1 X50.2864 Y60.5125
G1 X49.8815
G1 X49.8808 Y60.7525
G1 X50.3489
G1 Y60.9925
G1 X49.8801
G1 X61.7000
G1 Y60.7525
G1 X61.2314
G1 X61.2712 Y60.5125
G1 X61.7000
G1 Y60.2725
G1 X61.2712
G1 X61.2713 Y60.0325
G1 X61.7000
G1 Y59.7925
G1 X61.2714
G1 X61.2715 Y59.5525
G1 X61.7000
G1 Y59.3125
G1 X61.2547
G1 X61.7000
G1 Y59.0725
G1 X60.7719
G1 X60.7718 Y58.8325
G1 X61.7000
G1 Y58.5925
G1 X60.7717
G1 X60.7716 Y58.3525
G1 X61.7000
G1 Y58.1125
G1 X60.7714
G1 X60.7108 Y57.8725
G1 X61.7000
G1 Y57.6325
G1 X60.4941
G1 X60.2541 Y57.3925
G1 X61.7000
G1 Y57.1525
G1 X60.0141
G1 X59.7741 Y56.9125
G1 X61.7000
G1 Y56.6725
G1 X59.4236
G1 Y56.4325
G1 X58.4860
G1 X61.7000
G1 Y56.1925
G1 X57.2399
G1 Y55.9525
G1 X61.7000
G1 Y55.7125
G1 X57.2711
G1 X57.5111 Y55.4725
G1 X61.7000
G1 Y55.2325
G1 X57.7511
G1 X57.9911 Y54.9925
G1 X61.7000
G1 Y54.7525
G1 X58.2311
G1 X58.4711 Y54.5125
G1 X61.7000
G1 Y54.2725
G1 X60.7064
G1 X60.8650 Y54.0325
G1 X61.7000
G1 Y53.7925
G1 X60.8649
G1 X60.8648 Y53.5525
G1 X61.7000
G1 Y53.3125
G1 X60.8647
G1 X60.8646 Y53.0725
G1 X61.7000
G1 Y52.8325
G1 X60.8533
G0 Z1.0000 F500
G0 X60.3130 Y48.2725 F3000
G0 Z0.5000 F500
G1 Z-0.1500 F120
G1 Y48.5125 F180
G1 X59.5067
G1 X59.8594
G1 Y48.7525
G1 X60.3130
G1 Y48.9925
G1 X60.0186
G1 X60.0908 Y49.2325
G1 X60.3130
G1 Y49.4725
G1 X60.0905
G1 X60.0138 Y49.7125
G1 X60.3130
G1 Y49.9525
G1 X59.8485
G1 Y50.1925
G1 X59.4380
G1 X60.3130
G1 Y50.4325
G1 X58.8821
G1 X58.6421 Y50.6725
G1 X59.6066
G1 X59.6050 Y50.9125
G1 X58.5780
G1 X58.5100 Y51.1525
G1 X59.6050
G1 Y51.3925
G1 X58.4912
G0 Z1.0000 F500
G0 X55.1210 Y51.6325 F3000
G0 Z0.5000 F500
G1 Z-0.1500 F120
G1 Y51.3925 F180
G1 X54.6817
G1 X54.6999 Y51.1525
G1 X55.1025
G1 X55.1032 Y50.9125
G1 X54.6998
G1 X54.6997 Y50.6725
G1 X55.1038
G1 X55.1045 Y50.4325
G1 X54.6997
G1 X54.6996 Y50.1925
G1 X55.1052
G1 X55.1059 Y49.9525
G1 X51.8750
G1 Y49.7125
G1 X54.9281
G1 X54.8525 Y49.4725
G1 X51.9681
G1 X52.2081 Y49.2325
G1 X54.8520
G1 X54.8024 Y48.9925
G1 X54.4912
G1 X54.4915 Y48.7525
G1 X54.8024
G1 X54.8023 Y48.5125
G1 X54.4919
G1 X54.5383 Y48.2725
G1 X54.8022
G1 Y48.0325
G1 X54.5420
G1 Y47.7925
G1 X54.8021
G1 X54.8020 Y47.5525
G1 X54.5420
G1 X54.6361 Y47.3125
G1 X54.8806
G0 Z1.0000 F500
G0 X53.5324 Y49.2325 F3000
G0 Z0.5000 F500
G1 Z-0.1500 F120
G1 Y48.9925 F180
G1 X52.4481
G0 Z1.0000 F500
G0 X51.8750 Y49.9525 F3000
G0 Z0.5000 F500
G1 Z-0.1500 F120
G1 Y50.1925 F180
G1 X53.8327
G1 X52.1128
G1 Y50.4325
G1 X51.8750
G1 Y50.6725
G1 X52.1121
G1 X52.1122 Y50.9125
G1 X51.8750
G1 Y51.1525
G1 X52.1123
G1 X52.1124 Y51.3925
G1 X51.8750
G1 Y51.6325
G1 X52.1124
G0 Z1.0000 F500
G0 X55.9513 F3000
G0 Z0.5000 F500
G1 Z-0.1500 F120
G1 Y51.3925 F180
G1 X56.3910
G1 X56.3725 Y51.1525
G1 X55.9692
G1 X55.9694 Y50.9125
G1 X56.3732
G1 X56.3738 Y50.6725
G1 X55.9696
G1 X55.9698 Y50.4325
G1 X56.3745
G1 X56.3752 Y50.1925
G1 X55.9700
G1 X55.9676 Y49.9525
G1 X56.3759
G1 X56.1981 Y49.7125
G1 X55.9649
G1 X55.8812 Y49.4725
G1 X56.1225
G1 X56.1220 Y49.2325
G1 X55.7120
G1 X55.7620 Y48.9925
G1 X56.0724
G1 Y48.7525
G1 X55.7619
G1 Y48.5125
G1 X56.0723
G1 X56.0722 Y48.2725
G1 X55.7618
G1 X55.7617 Y48.0325
G1 X56.0722
G1 X56.0721 Y47.7925
G1 X55.7616
G1 Y47.5525
G1 X56.0720
G1 X56.1506 Y47.3125
G1 X55.6821
G0 Z1.0000 F500
G0 X57.2213 Y51.6325 F3000
G0 Z0.5000 F500
G1 Z-0.1500 F120
G1 Y51.3925 F180
G1 X57.6604
G1 X57.6422 Y51.1525
G1 X57.2392
G1 X57.2394 Y50.9125
G1 X57.5742
G1 X57.5465 Y50.6725
G1 X57.2396
G1 X57.2398 Y50.4325
G1 X57.5464
G1 X57.5463 Y50.1925
G1 X57.2400
G1 X57.2376 Y49.9525
G1 X57.5462
G1 Y49.7125
G1 X57.2349
G1 X57.1512 Y49.4725
G1 X57.5461
G1 X57.5460 Y49.2325
G1 X56.9820
G1 X57.0320 Y48.9925
G1 X57.3424
G1 X57.3422 Y48.7525
G1 X57.0319
G1 Y48.5125
G1 X57.3420
G1 X57.2933 Y48.2725
G1 X57.0318
G1 X57.0317 Y48.0325
G1 X57.2920
G1 Y47.7925
G1 X57.0316
G1 Y47.5525
G1 X57.2920
G1 Y47.3125
G1 X56.9521
G0 Z1.0000 F500
G0 X58.7111 Y54.5125 F3000
G0 Z0.5000 F500
G1 Z-0.1500 F120
G1 Y54.2725 F180
G1 X59.7631
G1 X59.6053 Y54.0325
G1 X58.9511
G0 Z1.0000 F500
G0 X56.3760 Y56.1925 F3000
G0 Z0.5000 F500
G1 Z-0.1500 F120
G1 Y56.4325 F180
G1 X55.9459
G1 X55.9695 Y56.6725
G1 X56.3755
G1 X56.3746 Y56.9125
G1 X55.9686
G1 X55.9678 Y57.1525
G1 X56.3738
G1 X56.3730 Y57.3925
G1 X55.9670
G1 X55.9661 Y57.6325
G1 X56.3721
G1 X56.3736 Y57.8725
G1 X55.9660
G1 Y58.1125
G1 X56.3755
G1 X56.3935 Y58.3525
G1 X55.9660
G1 Y58.5925
G1 X56.5539
G1 X56.7939 Y58.8325
G1 X55.9058
G1 X55.7960 Y59.0725
G1 X57.0339
G1 X56.9297 Y59.3125
G1 X56.1456
G1 X56.1457 Y59.5525
G1 X56.9120
G1 Y59.7925
G1 X56.1458
G1 X56.1459 Y60.0325
G1 X56.9120
G1 Y60.2725
G1 X56.1341
G1 X56.9120
G1 Y60.5125
G1 X51.8960
G1 X53.9341
G1 Y60.2725
G1 X54.5973
G1 X54.5864 Y60.0325
G1 X53.9459
G1 X53.9458 Y59.7925
G1 X54.5862
G1 X54.5861 Y59.5525
G1 X53.9457
G1 X53.9456 Y59.3125
G1 X54.5860
G1 Y59.0725
G1 X54.9360
G1 X51.8901
G1 X51.8958 Y59.3125
G1 X52.3868
G0 Z1.0000 F500
G0 X57.2400 Y56.1925 F3000
G0 Z0.5000 F500
G1 Z-0.1500 F120
G1 Y56.4325 F180
G1 X57.6654
G1 X57.6420 Y56.6725
G1 X57.2395
G1 X57.2386 Y56.9125
G1 X57.6420
G1 Y57.1525
G1 X57.2378
G1 X57.2369 Y57.3925
G1 X57.6420
G1 Y57.6325
G1 X57.2361
G1 X57.2360 Y57.8725
G1 X57.6436
G1 X57.6455 Y58.1125
G1 X57.2911
G0 Z1.0000 F500
G0 X51.8960 Y60.5125 F3000
G0 Z0.5000 F500
G1 Z-0.1500 F120
G1 Y60.7525 F180
G1 X56.9526
G1 X51.8336
G0 Z1.0000 F500
G0 X58.7314 Y60.9925 F3000
G0 Z0.5000 F500
G1 Z-0.1500 F120
G1 Y60.7525 F180
G1 X59.4526
G1 X59.4124 Y60.5125
G1 X58.7712
G1 Y60.2725
G1 X59.4123
G1 X59.4122 Y60.0325
G1 X58.7713
G1 X58.7714 Y59.7925
G1 X59.4121
G1 Y59.5525
G1 X58.7715
G1 X58.7544 Y59.3125
G1 X59.4297
G1 Y59.0725
G1 X59.9120
G1 X58.2226
G1 X58.0111 Y58.8325
G1 X59.9120
G1 Y58.5925
G1 X57.7711
G1 X58.4882
G1 Y58.3525
G1 X59.9120
G1 X59.7569 Y58.1125
G1 X58.5008
G1 X58.5057 Y57.8725
G1 X59.5169
G1 X59.2769 Y57.6325
G1 X58.5100
G0 Z1.0000 F500
G0 Z0.5000
G1 Z-0.1500 F120
G1 X58.4800 F180
G1 Y57.6640
G1 X58.4668 Y58.3127
G1 X58.4614 Y58.3384
G1 X58.4516 Y58.3627
G1 X58.4378 Y58.3850
G1 X58.4202 Y58.4045
G1 X58.3996 Y58.4206
G1 X58.3765 Y58.4330
G1 X58.3515 Y58.4411
G1 X58.3256 Y58.4447
G1 X57.8120 Y58.4441
G1 X57.7862 Y58.4393
G1 X57.7617 Y58.4300
G1 X57.7392 Y58.4165
G1 X57.7193 Y58.3994
G1 X57.7028 Y58.3791
G1 X57.6900 Y58.3562
G1 X57.6814 Y58.3314
G1 X57.6773 Y58.3055
G1 X57.6768 Y58.2761
G1 X57.6720 Y57.6652
G1 Y56.5210
G1 X57.6750 Y56.4912
G1 X57.6834 Y56.4643
G1 X57.6965 Y56.4394
G1 X57.7140 Y56.4173
G1 X57.7353 Y56.3988
G1 X57.7596 Y56.3845
G1 X57.7860 Y56.3750
G1 X57.8138 Y56.3704
G1 X57.8420 Y56.3710
G1 X58.3300
G1 X58.3580 Y56.3736
G1 X58.3849 Y56.3814
G1 X58.4100 Y56.3941
G1 X58.4322 Y56.4112
G1 X58.4509 Y56.4322
G1 X58.4653 Y56.4563
G1 X58.4750 Y56.4827
G1 X58.4796 Y56.5104
G1 X58.4800 Y56.6930
G1 X59.3460
G1 X59.4290 Y56.7015
G1 X59.5085 Y56.7270
G1 X59.5809 Y56.7685
G1 X59.6432 Y56.8241
G1 X60.6251 Y57.8059
G1 X60.6733 Y57.8640
G1 X60.7097 Y57.9302
G1 X60.7327 Y58.0021
G1 X60.7415 Y58.0770
G1 X60.7420 Y59.2390
G1 X61.0920
G1 X61.1237 Y59.2426
G1 X61.1540 Y59.2527
G1 X61.1815 Y59.2689
G1 X61.2050 Y59.2904
G1 X61.2235 Y59.3165
G1 X61.2362 Y59.3458
G1 X61.2424 Y59.3771
G1 X61.2420 Y59.4090
G1 X61.2413 Y60.6540
G1 X61.2351 Y60.6834
G1 X61.2233 Y60.7111
G1 X61.2064 Y60.7359
G1 X61.1848 Y60.7568
G1 X61.1596 Y60.7732
G1 X61.1316 Y60.7842
G1 X61.1021 Y60.7896
G1 X61.0720 Y60.7890
G1 X59.5920
G1 X59.5640 Y60.7864
G1 X59.5371 Y60.7786
G1 X59.5120 Y60.7659
G1 X59.4898 Y60.7488
G1 X59.4711 Y60.7278
G1 X59.4567 Y60.7037
G1 X59.4470 Y60.6773
G1 X59.4424 Y60.6496
G1 X59.4420 Y59.3890
G1 X59.4450 Y59.3592
G1 X59.4517 Y59.3358
G1 X59.4622 Y59.3138
G1 X59.4761 Y59.2938
G1 X59.4930 Y59.2763
G1 X59.5125 Y59.2618
G1 X59.5342 Y59.2506
G1 X59.5573 Y59.2431
G1 X59.5814 Y59.2394
G1 X59.9420 Y59.2390
G1 Y58.2551
G1 X59.1799 Y57.4930
G1 X58.4800
G1 Y57.6325
G1 X58.5100
G0 Z1.0000 F500
G0 X55.9661 F3000
G0 Z0.5000 F500
G1 Z-0.1500 F120
G1 X55.9361 Y57.6244 F180
G1 X55.9360 Y57.6643
G1 Y58.6170
G1 X55.9237 Y58.7135
G1 X55.8900 Y58.8048
G1 X55.8365 Y58.8860
G1 X55.7660 Y58.9531
G1 Y59.1600
G1 X55.9660
G1 X55.9940 Y59.1626
G1 X56.0209 Y59.1704
G1 X56.0460 Y59.1831
G1 X56.0682 Y59.2002
G1 X56.0869 Y59.2212
G1 X56.1013 Y59.2453
G1 X56.1110 Y59.2717
G1 X56.1156 Y59.2994
G1 X56.1160 Y60.2100
G1 X56.1124 Y60.2417
G1 X56.1023 Y60.2720
G1 X56.0861 Y60.2995
G1 X56.0646 Y60.3230
G1 X56.0385 Y60.3415
G1 X56.0092 Y60.3542
G1 X55.9779 Y60.3604
G1 X55.9460 Y60.3600
G1 X54.7510 Y60.3593
G1 X54.7253 Y60.3544
G1 X54.7008 Y60.3451
G1 X54.6782 Y60.3316
G1 X54.6584 Y60.3145
G1 X54.6418 Y60.2942
G1 X54.6291 Y60.2713
G1 X54.6205 Y60.2465
G1 X54.6164 Y60.2206
G1 X54.6160 Y59.3100
G1 X54.6167 Y59.2950
G1 X54.6216 Y59.2693
G1 X54.6309 Y59.2448
G1 X54.6444 Y59.2222
G1 X54.6615 Y59.2024
G1 X54.6818 Y59.1858
G1 X54.7047 Y59.1731
G1 X54.7295 Y59.1645
G1 X54.7554 Y59.1604
G1 X54.9660 Y59.1600
G1 Y58.7870
G1 X54.9679 Y58.7486
G1 X54.9892 Y58.6642
G1 X55.0251 Y58.5848
G1 X55.0744 Y58.5131
G1 X55.1357 Y58.4512
G1 X55.1320 Y57.6647
G1 Y56.5210
G1 X55.1350 Y56.4912
G1 X55.1433 Y56.4643
G1 X55.1564 Y56.4393
G1 X55.1739 Y56.4172
G1 X55.1952 Y56.3987
G1 X55.2195 Y56.3844
G1 X55.2460 Y56.3749
G1 X55.2738 Y56.3703
G1 X55.3020 Y56.3710
G1 X55.7900
G1 X55.8180 Y56.3736
G1 X55.8449 Y56.3814
G1 X55.8700 Y56.3941
G1 X55.8922 Y56.4112
G1 X55.9109 Y56.4322
G1 X55.9253 Y56.4563
G1 X55.9350 Y56.4827
G1 X55.9396 Y56.5104
G1 X55.9361 Y57.6244
G1 X55.9661 Y57.6325
G0 Z1.0000 F500
G0 X56.3721 F3000
G0 Z0.5000 F500
G1 Z-0.1500 F120
G1 X56.4021 Y57.6340 F180
G1 X56.4060 Y56.5207
G1 Y55.5690
G1 X56.4079 Y55.5306
G1 X56.4215 Y55.4580
G1 X56.4482 Y55.3891
G1 X56.4872 Y55.3263
G1 X56.5371 Y55.2718
G1 X58.5979 Y53.2109
G1 X58.6627 Y53.1583
G1 X58.7370 Y53.1202
G1 X58.8176 Y53.0985
G1 X58.9010 Y53.0940
G1 X59.6350
G1 Y52.8940
G1 X59.6357 Y52.8790
G1 X59.6420 Y52.8496
G1 X59.6538 Y52.8220
G1 X59.6708 Y52.7973
G1 X59.6923 Y52.7764
G1 X59.7175 Y52.7600
G1 X59.7454 Y52.7489
G1 X59.7750 Y52.7435
G1 X59.8050 Y52.7440
G1 X60.6850
G1 X60.7130 Y52.7466
G1 X60.7399 Y52.7544
G1 X60.7650 Y52.7671
G1 X60.7872 Y52.7842
G1 X60.8059 Y52.8052
G1 X60.8203 Y52.8293
G1 X60.8300 Y52.8557
G1 X60.8346 Y52.8834
G1 X60.8350 Y54.0940
G1 X60.8314 Y54.1257
G1 X60.8213 Y54.1560
G1 X60.8051 Y54.1834
G1 X60.7835 Y54.2069
G1 X60.7575 Y54.2254
G1 X60.7282 Y54.2381
G1 X60.6969 Y54.2444
G1 X60.6650 Y54.2440
G1 X59.7700 Y54.2433
G1 X59.7443 Y54.2384
G1 X59.7198 Y54.2291
G1 X59.6972 Y54.2156
G1 X59.6774 Y54.1985
G1 X59.6608 Y54.1782
G1 X59.6481 Y54.1553
G1 X59.6395 Y54.1305
G1 X59.6354 Y54.1046
G1 X59.6350 Y53.8940
G1 X59.0471
G1 X57.2063 Y55.7348
G1 X57.2100 Y56.5203
G1 X57.2060 Y57.6643
G1 Y58.0699
G1 X58.1251 Y58.9889
G1 X58.1700 Y59.0430
G1 X58.2051 Y59.1039
G1 X58.2294 Y59.1699
G1 X58.2420 Y59.2390
G1 X58.5920
G1 X58.6237 Y59.2427
G1 X58.6539 Y59.2528
G1 X58.6814 Y59.2690
G1 X58.7048 Y59.2906
G1 X58.7233 Y59.3166
G1 X58.7360 Y59.3459
G1 X58.7423 Y59.3771
G1 X58.7420 Y59.4090
G1 X58.7413 Y60.6540
G1 X58.7351 Y60.6834
G1 X58.7233 Y60.7111
G1 X58.7064 Y60.7359
G1 X58.6848 Y60.7568
G1 X58.6596 Y60.7732
G1 X58.6316 Y60.7842
G1 X58.6021 Y60.7896
G1 X58.5720 Y60.7890
G1 X57.0770 Y60.7883
G1 X57.0513 Y60.7834
G1 X57.0268 Y60.7741
G1 X57.0042 Y60.7606
G1 X56.9844 Y60.7435
G1 X56.9678 Y60.7232
G1 X56.9551 Y60.7003
G1 X56.9465 Y60.6755
G1 X56.9424 Y60.6496
G1 X56.9420 Y60.6190
G1 Y59.3890
G1 X56.9450 Y59.3592
G1 X56.9623 Y59.3184
G1 X56.9882 Y59.2824
G1 X57.0213 Y59.2529
G1 X57.0601 Y59.2313
G1 X57.1027 Y59.2188
G1 X57.1469 Y59.2159
G1 X57.1907 Y59.2227
G1 X57.2320 Y59.2390
G1 X57.2314 Y59.2275
G1 X56.5229 Y58.5191
G1 X56.4749 Y58.4609
G1 X56.4387 Y58.3947
G1 X56.4157 Y58.3228
G1 X56.4065 Y58.2480
G1 X56.4020 Y57.6650
G1 X56.4021 Y57.6340
G1 X56.3721 Y57.6325
G0 Z1.0000 F500
G0 X54.7000 F3000
G0 Z0.5000 F500
G1 Z-0.1500 F120
G1 X54.6700 Y57.6331 F180
G1 Y57.6628
G1 X54.6804 Y58.3389
G1 X54.6747 Y58.3687
G1 X54.6632 Y58.3968
G1 X54.6463 Y58.4221
G1 X54.6248 Y58.4435
G1 X54.5994 Y58.4601
G1 X54.5712 Y58.4715
G1 X54.5413 Y58.4769
G1 X54.5110 Y58.4764
G1 X54.0011 Y58.4756
G1 X53.9754 Y58.4708
G1 X53.9509 Y58.4615
G1 X53.9284 Y58.4480
G1 X53.9085 Y58.4309
G1 X53.8920 Y58.4106
G1 X53.8792 Y58.3877
G1 X53.8706 Y58.3629
G1 X53.8665 Y58.3370
G1 X53.8624 Y57.4026
G1 X53.8602 Y57.3871
G1 X53.8075 Y57.3618
G1 X53.6823 Y57.4179
G1 X53.5497 Y57.4529
G1 X53.4132 Y57.4658
G1 X53.2763 Y57.4563
G1 X53.1429 Y57.4247
G1 X53.0164 Y57.3718
G1 X52.9002 Y57.2990
G1 X52.7973 Y57.2083
G1 X52.7106 Y57.1020
G1 X52.6424 Y56.9831
G1 X52.5944 Y56.8546
G1 X52.5680 Y56.7200
G1 X52.5845 Y56.6596
G1 X52.5892 Y56.5971
G1 X52.5818 Y56.5348
G1 X52.5627 Y56.4752
G1 X52.5326 Y56.4202
G1 X52.4925 Y56.3721
G1 X52.4439 Y56.3325
G1 X52.3887 Y56.3028
G1 X52.3321 Y56.2358
G1 X52.2881 Y56.1599
G1 X52.2582 Y56.0774
G1 X52.2433 Y55.9909
G1 X52.2420 Y55.9300
G1 Y53.9900
G1 X52.2051 Y53.9653
G1 X52.1751 Y53.9325
G1 X52.1538 Y53.8936
G1 X52.1424 Y53.8506
G1 X52.1420 Y52.6400
G1 X52.1450 Y52.6102
G1 X52.1517 Y52.5868
G1 X52.1622 Y52.5648
G1 X52.1761 Y52.5448
G1 X52.1930 Y52.5273
G1 X52.2125 Y52.5128
G1 X52.2342 Y52.5016
G1 X52.2573 Y52.4941
G1 X52.2814 Y52.4904
G1 X53.1920 Y52.4900
G1 X53.2200 Y52.4926
G1 X53.2469 Y52.5004
G1 X53.2720 Y52.5131
G1 X53.2942 Y52.5302
G1 X53.3129 Y52.5512
G1 X53.3273 Y52.5753
G1 X53.3370 Y52.6017
G1 X53.3416 Y52.6294
G1 X53.3413 Y53.8550
G1 X53.3289 Y53.8965
G1 X53.3074 Y53.9341
G1 X53.2779 Y53.9658
G1 X53.2420 Y53.9900
G1 Y55.7429
G1 X53.2825 Y55.7834
G1 X53.4328 Y55.7710
G1 X53.5828 Y55.7863
G1 X53.7275 Y55.8288
G1 X53.8620 Y55.8969
G1 X53.9817 Y55.9885
G1 X54.0828 Y56.1004
G1 X54.1617 Y56.2289
G1 X54.2158 Y56.3697
G1 X54.2520 Y56.3710
G1 X54.2220
G1 X54.5200
G1 X54.5480 Y56.3736
G1 X54.5749 Y56.3814
G1 X54.6000 Y56.3941
G1 X54.6222 Y56.4112
G1 X54.6409 Y56.4322
G1 X54.6553 Y56.4563
G1 X54.6650 Y56.4827
G1 X54.6696 Y56.5104
G1 X54.6700 Y57.6331
G1 X54.7000 Y57.6325
G0 Z1.0000 F500
G0 X53.2321 Y51.8725 F3000
G0 Z0.5000 F500
G1 Z-0.1500 F120
G1 Y51.7845 F180
G1 X53.2173 Y51.7877
G1 X53.2023 Y51.7897
G1 X53.1871 Y51.7904
G1 X53.1720 Y51.7900
G1 X52.2770 Y51.7893
G1 X52.2513 Y51.7844
G1 X52.2268 Y51.7751
G1 X52.2042 Y51.7616
G1 X52.1844 Y51.7445
G1 X52.1678 Y51.7242
G1 X52.1551 Y51.7013
G1 X52.1465 Y51.6765
G1 X52.1424 Y51.6506
G1 X52.1420 Y50.4400
G1 X52.1450 Y50.4102
G1 X52.1534 Y50.3833
G1 X52.1665 Y50.3584
G1 X52.1840 Y50.3363
G1 X52.2053 Y50.3178
G1 X52.2296 Y50.3035
G1 X52.2560 Y50.2940
G1 X52.2838 Y50.2894
G1 X52.3120 Y50.2900
G1 X53.1920
G1 X53.2304 Y50.3007
G1 X53.2682 Y50.3131
G1 X53.3054 Y50.3272
G1 X53.3420 Y50.3430
G1 X53.3120
G1 X53.8620
G1 Y50.1710
G1 X53.8650 Y50.1412
G1 X53.8717 Y50.1178
G1 X53.8822 Y50.0958
G1 X53.8961 Y50.0758
G1 X53.9130 Y50.0583
G1 X53.9325 Y50.0438
G1 X53.9542 Y50.0326
G1 X53.9773 Y50.0251
G1 X54.0014 Y50.0214
G1 X54.5200 Y50.0210
G1 X54.5480 Y50.0236
G1 X54.5749 Y50.0314
G1 X54.6000 Y50.0441
G1 X54.6222 Y50.0612
G1 X54.6409 Y50.0822
G1 X54.6553 Y50.1063
G1 X54.6650 Y50.1327
G1 X54.6696 Y50.1604
G1 X54.6700 Y51.3140
G1 X54.6664 Y51.3457
G1 X54.6563 Y51.3760
G1 X54.6401 Y51.4034
G1 X54.6185 Y51.4269
G1 X54.5925 Y51.4454
G1 X54.5632 Y51.4581
G1 X54.5319 Y51.4644
G1 X54.5000 Y51.4640
G1 X53.9970 Y51.4633
G1 X53.9713 Y51.4584
G1 X53.9468 Y51.4491
G1 X53.9242 Y51.4356
G1 X53.9044 Y51.4185
G1 X53.8878 Y51.3982
G1 X53.8751 Y51.3753
G1 X53.8665 Y51.3505
G1 X53.8624 Y51.3246
G1 X53.8620 Y51.1430
G1 X53.3420
G1 Y51.6400
G1 X53.3400 Y51.6643
G1 X53.3341 Y51.6879
G1 X53.3245 Y51.7103
G1 X53.3114 Y51.7308
G1 X53.2952 Y51.7489
G1 X53.2762 Y51.7642
G1 X53.2550 Y51.7761
G1 X53.2321 Y51.7845
G1 Y51.8725
G0 Z1.0000 F500
G0 X55.1210 Y51.3925 F3000
G0 Z0.5000 F500
G1 Z-0.1500 F120
G1 X55.1355 Y51.3441 F180
G1 X55.1342 Y51.3395
G1 X55.1324 Y51.3246
G1 X55.1321 Y51.2935
G1 X55.1360 Y49.8931
G1 X55.0310 Y49.8121
G1 X54.9504 Y49.7069
G1 X54.8996 Y49.5844
G1 X54.8820 Y49.4530
G1 Y49.1310
G1 Y49.1610
G1 X54.8665 Y49.1273
G1 X54.8530 Y49.0928
G1 X54.8416 Y49.0575
G1 X54.8324 Y49.0216
G1 X54.8320 Y47.4610
G1 X54.8356 Y47.4293
G1 X54.8457 Y47.3990
G1 X54.8619 Y47.3716
G1 X54.8835 Y47.3481
G1 X54.9095 Y47.3296
G1 X54.9388 Y47.3169
G1 X54.9701 Y47.3106
G1 X55.0020 Y47.3110
G1 X55.5820
G1 X55.6100 Y47.3136
G1 X55.6369 Y47.3214
G1 X55.6620 Y47.3341
G1 X55.6842 Y47.3512
G1 X55.7029 Y47.3722
G1 X55.7173 Y47.3963
G1 X55.7270 Y47.4227
G1 X55.7316 Y47.4504
G1 X55.7320 Y49.0110
G1 X55.7209 Y49.0490
G1 X55.7089 Y49.0866
G1 X55.6959 Y49.1240
G1 X55.6820 Y49.1610
G1 Y49.1310
G1 Y49.3069
G1 X55.7770 Y49.3802
G1 X55.8532 Y49.4730
G1 X55.9067 Y49.5804
G1 X55.9348 Y49.6971
G1 X55.9400 Y50.1696
G1 X55.9393 Y51.3290
G1 X55.9331 Y51.3584
G1 X55.9213 Y51.3861
G1 X55.9044 Y51.4109
G1 X55.8828 Y51.4318
G1 X55.8576 Y51.4482
G1 X55.8296 Y51.4592
G1 X55.8001 Y51.4646
G1 X55.7700 Y51.4640
G1 X55.2820
G1 X55.2565 Y51.4619
G1 X55.2317 Y51.4554
G1 X55.2084 Y51.4448
G1 X55.1873 Y51.4303
G1 X55.1689 Y51.4124
G1 X55.1539 Y51.3917
G1 X55.1426 Y51.3687
G1 X55.1355 Y51.3441
G1 X55.1210 Y51.3925
G0 Z1.0000 F500
G0 X56.3910 F3000
G0 Z0.5000 F500
G1 Z-0.1500 F120
G1 X56.4024 Y51.3246 F180
G1 X56.4021 Y51.2935
G1 X56.4060 Y49.8931
G1 X56.3010 Y49.8121
G1 X56.2204 Y49.7069
G1 X56.1696 Y49.5844
G1 X56.1520 Y49.4530
G1 Y49.1310
G1 Y49.1610
G1 X56.1365 Y49.1273
G1 X56.1230 Y49.0928
G1 X56.1116 Y49.0575
G1 X56.1024 Y49.0216
G1 X56.1020 Y47.4610
G1 X56.1050 Y47.4312
G1 X56.1133 Y47.4043
G1 X56.1264 Y47.3793
G1 X56.1439 Y47.3572
G1 X56.1652 Y47.3387
G1 X56.1895 Y47.3244
G1 X56.2160 Y47.3149
G1 X56.2438 Y47.3103
G1 X56.2720 Y47.3110
G1 X56.8520
G1 X56.8800 Y47.3136
G1 X56.9069 Y47.3214
G1 X56.9320 Y47.3341
G1 X56.9542 Y47.3512
G1 X56.9729 Y47.3722
G1 X56.9873 Y47.3963
G1 X56.9970 Y47.4227
G1 X57.0016 Y47.4504
G1 X57.0020 Y49.0110
G1 X56.9909 Y49.0490
G1 X56.9789 Y49.0866
G1 X56.9659 Y49.1240
G1 X56.9520 Y49.1610
G1 Y49.1310
G1 Y49.3069
G1 X57.0470 Y49.3802
G1 X57.1232 Y49.4730
G1 X57.1767 Y49.5804
G1 X57.2048 Y49.6971
G1 X57.2100 Y50.1696
G1 X57.2093 Y51.3290
G1 X57.2031 Y51.3584
G1 X57.1913 Y51.3861
G1 X57.1744 Y51.4109
G1 X57.1528 Y51.4318
G1 X57.1276 Y51.4482
G1 X57.0996 Y51.4592
G1 X57.0701 Y51.4646
G1 X57.0400 Y51.4640
G1 X56.5520
G1 X56.5240 Y51.4614
G1 X56.4971 Y51.4536
G1 X56.4720 Y51.4409
G1 X56.4498 Y51.4238
G1 X56.4311 Y51.4028
G1 X56.4167 Y51.3787
G1 X56.4070 Y51.3523
G1 X56.4024 Y51.3246
G1 X56.3910 Y51.3925
G0 Z1.0000 F500
G0 X57.6604 F3000
G0 Z0.5000 F500
G1 Z-0.1500 F120
G1 X57.6724 Y51.3246 F180
G1 X57.6946 Y51.2181
G1 X57.6903 Y51.1094
G1 X57.6598 Y51.0050
G1 X57.6049 Y50.9111
G1 X57.5958 Y50.8692
G1 X57.5764 Y50.7540
G1 X57.5760 Y49.1710
G1 X57.5409 Y49.1736
G1 X57.5059 Y49.1691
G1 X57.4726 Y49.1577
G1 X57.4423 Y49.1398
G1 X57.4161 Y49.1162
G1 X57.3952 Y49.0879
G1 X57.3804 Y49.0559
G1 X57.3724 Y49.0216
G1 X57.3720 Y48.4557
G1 X57.3575 Y48.4117
G1 X57.3446 Y48.3672
G1 X57.3332 Y48.3222
G1 X57.3233 Y48.2769
G1 X57.3220 Y48.2160
G1 Y47.1401
G1 X57.2339 Y47.0520
G1 X54.8541
G1 X54.5120 Y47.3941
G1 X54.5113 Y48.2510
G1 X54.5046 Y48.3032
G1 X54.4941 Y48.3548
G1 X54.4799 Y48.4055
G1 X54.4620 Y48.4550
G1 X54.4613 Y49.0260
G1 X54.4564 Y49.0517
G1 X54.4471 Y49.0762
G1 X54.4336 Y49.0988
G1 X54.4165 Y49.1186
G1 X54.3962 Y49.1352
G1 X54.3733 Y49.1479
G1 X54.3485 Y49.1565
G1 X54.3226 Y49.1606
G1 X53.7120 Y49.1610
G1 X53.6840 Y49.1584
G1 X53.6571 Y49.1506
G1 X53.6320 Y49.1379
G1 X53.6098 Y49.1208
G1 X53.5911 Y49.0998
G1 X53.5767 Y49.0757
G1 X53.5670 Y49.0493
G1 X53.5624 Y49.0216
G1 X53.5620 Y48.9910
G1 Y48.7360
G1 X52.6621
G1 X51.8450 Y49.5531
G1 Y56.5370
G1 Y56.4670
G1 X51.8494 Y56.5020
G1 X51.8543 Y56.5369
G1 X51.8597 Y56.5717
G1 X51.8656 Y56.6064
G1 X51.8660 Y58.1170
G1 X51.8624 Y58.1487
G1 X51.8523 Y58.1790
G1 X51.8361 Y58.2064
G1 X51.8145 Y58.2299
G1 X51.7885 Y58.2484
G1 X51.7592 Y58.2611
G1 X51.7279 Y58.2674
G1 X51.6960 Y58.2670
G1 X50.4510 Y58.2663
G1 X50.4253 Y58.2614
G1 X50.4008 Y58.2521
G1 X50.3782 Y58.2386
G1 X50.3584 Y58.2215
G1 X50.3418 Y58.2012
G1 X50.3291 Y58.1783
G1 X50.3205 Y58.1535
G1 X50.3164 Y58.1276
G1 X50.3160 Y56.6170
G1 X50.3167 Y56.6020
G1 X50.3229 Y56.5726
G1 X50.3347 Y56.5450
G1 X50.3517 Y56.5202
G1 X50.3732 Y56.4992
G1 X50.3985 Y56.4829
G1 X50.4264 Y56.4718
G1 X50.4560 Y56.4665
G1 X50.4860 Y56.4670
G1 X50.8350
G1 X50.8450 Y56.4570
G1 Y49.3460
G1 X50.8464 Y49.3037
G1 X50.8595 Y49.2273
G1 X50.8839 Y49.1538
G1 X50.9192 Y49.0848
G1 X50.9644 Y49.0219
G1 X52.1019 Y47.8829
G1 X52.1818 Y47.8180
G1 X52.2732 Y47.7706
G1 X52.3723 Y47.7429
G1 X52.4750 Y47.7360
G1 X53.5120
G1 Y47.1870
G1 X53.5134 Y47.1447
G1 X53.5283 Y47.0601
G1 X53.5574 Y46.9793
G1 X53.5999 Y46.9047
G1 X53.6546 Y46.8385
G1 X54.2939 Y46.1989
G1 X54.3738 Y46.1340
G1 X54.4652 Y46.0866
G1 X54.5643 Y46.0589
G1 X54.6670 Y46.0520
G1 X57.4410
G1 X57.5287 Y46.0599
G1 X57.6137 Y46.0829
G1 X57.6933 Y46.1205
G1 X57.7651 Y46.1714
G1 X58.1971 Y46.6029
G1 X58.2527 Y46.6799
G1 X58.2930 Y46.7660
G1 X58.3163 Y46.8581
G1 X58.3220 Y46.9530
G1 Y48.0292
G1 X58.4295 Y48.1212
G1 X58.5107 Y48.2370
G1 X58.5606 Y48.3694
G1 X58.5760 Y48.5100
G1 Y48.7840
G1 X58.7040 Y48.6642
G1 X58.8539 Y48.5734
G1 X59.0193 Y48.5152
G1 X59.1930 Y48.4923
G1 X59.3678 Y48.5057
G1 X59.5361 Y48.5546
G1 X59.6908 Y48.6371
G1 X59.8252 Y48.7497
G1 X59.9335 Y48.8875
G1 X60.0113 Y49.0446
G1 X60.0551 Y49.2143
G1 X60.0630 Y49.3894
G1 X60.0348 Y49.5624
G1 X59.9717 Y49.7259
G1 X59.8762 Y49.8729
G1 X59.7526 Y49.9972
G1 X59.6061 Y50.0934
G1 X59.4429 Y50.1575
G1 X59.2701 Y50.1866
G1 X59.0949 Y50.1796
G1 X58.5760 Y50.6961
G1 X58.5725 Y50.7888
G1 X58.5550 Y50.8799
G1 X58.5239 Y50.9673
G1 X58.4800 Y51.0490
G1 Y51.3140
G1 X58.4774 Y51.3420
G1 X58.4696 Y51.3689
G1 X58.4569 Y51.3940
G1 X58.4398 Y51.4162
G1 X58.4188 Y51.4349
G1 X58.3947 Y51.4493
G1 X58.3683 Y51.4590
G1 X58.3406 Y51.4636
G1 X57.8220 Y51.4640
G1 X57.7940 Y51.4614
G1 X57.7671 Y51.4536
G1 X57.7420 Y51.4409
G1 X57.7198 Y51.4238
G1 X57.7011 Y51.4028
G1 X57.6867 Y51.3787
G1 X57.6770 Y51.3523
G1 X57.6724 Y51.3246
G1 X57.6604 Y51.3925
G0 Z1.0000 F500
G0 X57.0899 Y45.3925 F3000
G0 Z0.5000 F500
G1 Z-0.1500 F120
G1 Y45.2998 F180
G1 X56.2985 Y45.3145
G1 X55.5070 Y45.3195
G1 X54.7155 Y45.3151
G1 X53.9241 Y45.3010
G1 X52.9990 Y46.2261
G1 X52.9983 Y47.0270
G1 X52.9920 Y47.0564
G1 X52.9802 Y47.0840
G1 X52.9632 Y47.1087
G1 X52.9417 Y47.1296
G1 X52.9165 Y47.1460
G1 X52.8886 Y47.1571
G1 X52.8590 Y47.1625
G1 X52.8290 Y47.1620
G1 X50.3340 Y47.1613
G1 X50.3083 Y47.1564
G1 X50.2838 Y47.1471
G1 X50.2612 Y47.1336
G1 X50.2414 Y47.1165
G1 X50.2248 Y47.0962
G1 X50.2121 Y47.0733
G1 X50.2035 Y47.0485
G1 X50.1994 Y47.0226
G1 X50.1990 Y45.0120
G1 X50.2020 Y44.9822
G1 X50.2087 Y44.9588
G1 X50.2192 Y44.9368
G1 X50.2331 Y44.9168
G1 X50.2500 Y44.8993
G1 X50.2695 Y44.8848
G1 X50.2912 Y44.8736
G1 X50.3143 Y44.8661
G1 X50.3384 Y44.8624
G1 X52.8490 Y44.8620
G1 X52.8882 Y44.8694
G1 X52.9247 Y44.8856
G1 X52.9565 Y44.9097
G1 X52.9819 Y44.9405
G1 X52.9995 Y44.9763
G1 X53.0085 Y45.0152
G1 X53.0083 Y45.0551
G1 X52.9990 Y45.0939
G1 X53.4749 Y44.6179
G1 X53.5398 Y44.5655
G1 X53.6142 Y44.5276
G1 X53.6947 Y44.5058
G1 X53.7780 Y44.5010
G1 X56.8939
G1 X57.4220 Y43.9729
G1 Y43.7310
G1 Y43.7610
G1 X57.4065 Y43.7273
G1 X57.3930 Y43.6928
G1 X57.3816 Y43.6575
G1 X57.3724 Y43.6216
G1 X57.3727 Y42.0460
G1 X57.3789 Y42.0166
G1 X57.3907 Y41.9889
G1 X57.4076 Y41.9641
G1 X57.4292 Y41.9432
G1 X57.4544 Y41.9268
G1 X57.4824 Y41.9158
G1 X57.5119 Y41.9104
G1 X57.5420 Y41.9110
G1 X58.1370 Y41.9117
G1 X58.1664 Y41.9180
G1 X58.1940 Y41.9298
G1 X58.2187 Y41.9468
G1 X58.2396 Y41.9683
G1 X58.2560 Y41.9935
G1 X58.2671 Y42.0214
G1 X58.2725 Y42.0510
G1 X58.2720 Y42.0810
G1 X58.2713 Y43.6260
G1 X58.2589 Y43.6597
G1 X58.2466 Y43.6935
G1 X58.2343 Y43.7272
G1 X58.2220 Y43.7610
G1 Y43.7310
G1 Y44.1390
G1 X58.2128 Y44.2218
G1 X58.1871 Y44.3011
G1 X58.1459 Y44.3736
G1 X58.0909 Y44.4362
G1 X57.3431 Y45.1841
G1 X57.2887 Y45.2298
G1 X57.2270 Y45.2650
G1 X57.1600 Y45.2886
G1 X57.0899 Y45.2998
G1 Y45.3925
G0 Z1.0000 F500
G0 X56.9996 Y43.7125 F3000
G0 Z0.5000 F500
G1 Z-0.1500 F120
G1 X56.8626 Y43.7606 F180
G1 X56.7100 Y43.7621
G1 X56.5573 Y43.7627
G1 X56.4047 Y43.7623
G1 X56.2520 Y43.7610
G1 X56.2240 Y43.7584
G1 X56.1971 Y43.7506
G1 X56.1720 Y43.7379
G1 X56.1498 Y43.7208
G1 X56.1311 Y43.6998
G1 X56.1167 Y43.6757
G1 X56.1070 Y43.6493
G1 X56.1024 Y43.6216
G1 X56.1020 Y43.5910
G1 Y43.3360
G1 X55.7320
G1 Y43.6110
G1 X55.7284 Y43.6427
G1 X55.7183 Y43.6730
G1 X55.7021 Y43.7005
G1 X55.6806 Y43.7240
G1 X55.6545 Y43.7425
G1 X55.6252 Y43.7552
G1 X55.5939 Y43.7614
G1 X55.5620 Y43.7610
G1 X54.9670 Y43.7603
G1 X54.9413 Y43.7554
G1 X54.9168 Y43.7461
G1 X54.8942 Y43.7326
G1 X54.8744 Y43.7155
G1 X54.8578 Y43.6952
G1 X54.8451 Y43.6723
G1 X54.8365 Y43.6475
G1 X54.8324 Y43.6216
G1 X54.8478 Y43.4454
G1 X54.8457 Y43.2686
G1 X54.8259 Y43.0928
G1 X54.7888 Y42.9199
G1 X54.7872 Y42.9049
G1 X54.7870 Y42.7750
G1 X54.7924 Y42.7370
G1 X54.8018 Y42.6998
G1 X54.8150 Y42.6638
G1 X54.8320 Y42.6294
G1 X54.8327 Y42.0460
G1 X54.8446 Y42.0072
G1 X54.8648 Y41.9719
G1 X54.8922 Y41.9419
G1 X54.9256 Y41.9188
G1 X54.9633 Y41.9036
G1 X55.0034 Y41.8971
G1 X55.0440 Y41.8996
G1 X55.0830 Y41.9110
G1 X55.0803 Y41.8903
G1 X55.0781 Y41.8696
G1 X55.0763 Y41.8488
G1 X55.0750 Y41.8280
G1 Y41.6040
G1 X55.1139 Y41.4416
G1 X55.1844 Y41.2902
G1 X55.2836 Y41.1558
G1 X55.4075 Y41.0438
G1 X55.5512 Y40.9587
G1 X55.7089 Y40.9038
G1 X55.8744 Y40.8815
G1 X56.0411 Y40.8924
G1 X56.5800 Y40.3568
G1 X56.6596 Y40.2916
G1 X56.7510 Y40.2441
G1 X56.8502 Y40.2165
G1 X56.9530 Y40.2100
G1 X58.7950
G1 X58.8827 Y40.2179
G1 X58.9677 Y40.2409
G1 X59.0473 Y40.2785
G1 X59.1191 Y40.3294
G1 X59.9381 Y41.1460
G1 X60.5960 Y41.1467
G1 X60.6217 Y41.1516
G1 X60.6462 Y41.1609
G1 X60.6688 Y41.1744
G1 X60.6886 Y41.1915
G1 X60.7052 Y41.2118
G1 X60.7179 Y41.2347
G1 X60.7265 Y41.2595
G1 X60.7306 Y41.2854
G1 X60.7303 Y42.5110
G1 X60.7241 Y42.5404
G1 X60.7123 Y42.5681
G1 X60.6954 Y42.5929
G1 X60.6738 Y42.6138
G1 X60.6486 Y42.6302
G1 X60.6206 Y42.6412
G1 X60.5911 Y42.6466
G1 X60.5610 Y42.6460
G1 X59.3810
G1 X59.3530 Y42.6434
G1 X59.3261 Y42.6356
G1 X59.3010 Y42.6229
G1 X59.2788 Y42.6058
G1 X59.2601 Y42.5848
G1 X59.2457 Y42.5607
G1 X59.2360 Y42.5343
G1 X59.2314 Y42.5066
G1 X59.2310 Y41.8531
G1 X58.5879 Y41.2100
G1 X57.1401
G1 X56.7658 Y41.5844
G1 X56.7720 Y41.6664
G1 X56.7707 Y41.7486
G1 X56.7619 Y41.8304
G1 X56.7457 Y41.9110
G1 X56.7894 Y41.8962
G1 X56.8355 Y41.8931
G1 X56.8808 Y41.9020
G1 X56.9224 Y41.9222
G1 X56.9573 Y41.9524
G1 X56.9833 Y41.9906
G1 X56.9985 Y42.0342
G1 X57.0021 Y42.0802
G1 X57.0048 Y42.6203
G1 X57.0372 Y42.7238
G1 X57.0478 Y42.8317
G1 X57.0361 Y42.9396
G1 X57.0026 Y43.0428
G1 X57.0020 Y43.6110
G1 X56.9994 Y43.6390
G1 X56.9916 Y43.6659
G1 X56.9789 Y43.6910
G1 X56.9618 Y43.7132
G1 X56.9408 Y43.7319
G1 X56.9167 Y43.7463
G1 X56.8903 Y43.7560
G1 X56.8626 Y43.7606
G1 X56.9996 Y43.7125
G0 Z1.0000 F500
G0 X54.4613 F3000
G0 Z0.5000 F500
G1 Z-0.1500 F120
G1 Y43.6260 F180
G1 X54.4551 Y43.6554
G1 X54.4433 Y43.6831
G1 X54.4264 Y43.7079
G1 X54.4048 Y43.7288
G1 X54.3796 Y43.7452
G1 X54.3516 Y43.7562
G1 X54.3221 Y43.7616
G1 X54.2920 Y43.7610
G1 X53.6970 Y43.7603
G1 X53.6713 Y43.7554
G1 X53.6468 Y43.7461
G1 X53.6242 Y43.7326
G1 X53.6044 Y43.7155
G1 X53.5878 Y43.6952
G1 X53.5751 Y43.6723
G1 X53.5665 Y43.6475
G1 X53.5624 Y43.6216
G1 X53.5620 Y42.6041
G1 X53.3699 Y42.4120
G1 X52.9990
G1 Y43.0120
G1 X52.9954 Y43.0437
G1 X52.9853 Y43.0740
G1 X52.9691 Y43.1015
G1 X52.9476 Y43.1250
G1 X52.9215 Y43.1435
G1 X52.8922 Y43.1562
G1 X52.8609 Y43.1624
G1 X52.8290 Y43.1620
G1 X50.3490
G1 X50.3210 Y43.1594
G1 X50.2941 Y43.1516
G1 X50.2690 Y43.1389
G1 X50.2468 Y43.1218
G1 X50.2281 Y43.1008
G1 X50.2137 Y43.0767
G1 X50.2040 Y43.0503
G1 X50.1994 Y43.0226
G1 X50.1990 Y42.9920
G1 Y41.0120
G1 X50.2020 Y40.9822
G1 X50.2087 Y40.9588
G1 X50.2192 Y40.9368
G1 X50.2331 Y40.9168
G1 X50.2500 Y40.8993
G1 X50.2695 Y40.8848
G1 X50.2912 Y40.8736
G1 X50.3143 Y40.8661
G1 X50.3384 Y40.8624
G1 X52.8490 Y40.8620
G1 X52.8807 Y40.8657
G1 X52.9109 Y40.8758
G1 X52.9384 Y40.8920
G1 X52.9618 Y40.9136
G1 X52.9803 Y40.9396
G1 X52.9930 Y40.9689
G1 X52.9993 Y41.0001
G1 X52.9990 Y41.0320
G1 Y41.6160
G1 X53.6350 Y41.6331
G1 X53.7479 Y41.6696
G1 X53.8498 Y41.7303
G1 X53.9356 Y41.8121
G1 X54.0011 Y41.9110
G1 X54.3120
G1 X54.3437 Y41.9147
G1 X54.3739 Y41.9248
G1 X54.4014 Y41.9410
G1 X54.4248 Y41.9626
G1 X54.4433 Y41.9886
G1 X54.4560 Y42.0179
G1 X54.4623 Y42.0491
G1 X54.4620 Y42.0810
G1 X54.4613 Y43.6260
G1 Y43.7125
G0 Z1.0000 F500
G0 X54.4611 Y40.1125 F3000
G0 Z0.5000 F500
G1 Z-0.1500 F120
G1 Y39.8503 F180
G1 X61.5050 Y39.8500
G1 X61.5512 Y39.8552
G1 X61.5955 Y39.8697
G1 X61.6358 Y39.8928
G1 X61.6706 Y39.9237
G1 X61.6985 Y39.9610
G1 X61.7181 Y40.0032
G1 X61.7288 Y40.0485
G1 X61.7300 Y40.0950
G1 Y61.0300
G1 X61.7248 Y61.0762
G1 X61.7103 Y61.1205
G1 X61.6872 Y61.1608
G1 X61.6563 Y61.1956
G1 X61.6190 Y61.2235
G1 X61.5768 Y61.2431
G1 X61.5315 Y61.2538
G1 X61.4850 Y61.2550
G1 X50.0750
G1 X50.0326 Y61.2507
G1 X49.9918 Y61.2386
G1 X49.9540 Y61.2190
G1 X49.9205 Y61.1927
G1 X49.8925 Y61.1605
G1 X49.8711 Y61.1238
G1 X49.8569 Y61.0836
G1 X49.8504 Y61.0415
G1 X49.8501 Y61.0096
G1 X49.9120 Y40.0006
G1 X49.9151 Y39.9712
G1 X49.9238 Y39.9429
G1 X49.9378 Y39.9169
G1 X49.9567 Y39.8942
G1 X49.9796 Y39.8755
G1 X50.0058 Y39.8617
G1 X50.0341 Y39.8532
G1 X50.0635 Y39.8504
G1 X54.4611 Y39.8503
G1 Y40.1125
G0 Z1.0000 F500
G0 X59.2034 Y43.4725 F3000
G0 Z0.5000 F500
G1 Z-0.1500 F120
G1 X59.2572 Y43.4113 F180
G1 X59.2792 Y43.3858
G1 X59.3064 Y43.3659
G1 X59.3373 Y43.3525
G1 X59.3704 Y43.3464
G1 X60.5810 Y43.3460
G1 X60.6090 Y43.3486
G1 X60.6359 Y43.3564
G1 X60.6610 Y43.3691
G1 X60.6832 Y43.3862
G1 X60.7019 Y43.4072
G1 X60.7163 Y43.4313
G1 X60.7260 Y43.4577
G1 X60.7306 Y43.4854
G1 X60.7303 Y44.7110
G1 X60.7254 Y44.7367
G1 X60.7161 Y44.7612
G1 X60.7026 Y44.7838
G1 X60.6855 Y44.8036
G1 X60.6652 Y44.8202
G1 X60.6423 Y44.8329
G1 X60.6175 Y44.8415
G1 X60.5916 Y44.8456
G1 X60.3810 Y44.8460
G1 Y46.3859
G1 X61.0261 Y47.0309
G1 X61.0785 Y47.0959
G1 X61.1164 Y47.1702
G1 X61.1382 Y47.2507
G1 X61.1430 Y47.3340
G1 Y50.7860
G1 X61.1086 Y50.9278
G1 X61.0434 Y51.0584
G1 X60.9506 Y51.1711
G1 X60.8350 Y51.2601
G1 Y51.8940
G1 X60.8314 Y51.9257
G1 X60.8213 Y51.9560
G1 X60.8051 Y51.9835
G1 X60.7836 Y52.0070
G1 X60.7575 Y52.0255
G1 X60.7282 Y52.0382
G1 X60.6969 Y52.0444
G1 X60.6650 Y52.0440
G1 X59.7700 Y52.0433
G1 X59.7443 Y52.0384
G1 X59.7198 Y52.0291
G1 X59.6972 Y52.0156
G1 X59.6774 Y51.9985
G1 X59.6608 Y51.9782
G1 X59.6481 Y51.9553
G1 X59.6395 Y51.9305
G1 X59.6354 Y51.9046
G1 X59.6350 Y51.8740
G1 Y50.6940
G1 X59.6380 Y50.6642
G1 X59.6447 Y50.6408
G1 X59.6552 Y50.6188
G1 X59.6691 Y50.5988
G1 X59.6860 Y50.5813
G1 X59.7055 Y50.5668
G1 X59.7272 Y50.5556
G1 X59.7503 Y50.5481
G1 X59.7744 Y50.5444
G1 X60.3410 Y50.5440
G1 X60.3430 Y47.4801
G1 X59.6979 Y46.8351
G1 X59.6545 Y46.7837
G1 X59.6204 Y46.7257
G1 X59.5966 Y46.6628
G1 X59.5837 Y46.5968
G1 X59.5810 Y46.5320
G1 Y44.8460
G1 X59.3660 Y44.8453
G1 X59.3403 Y44.8404
G1 X59.3158 Y44.8311
G1 X59.2932 Y44.8176
G1 X59.2734 Y44.8005
G1 X59.2568 Y44.7802
G1 X59.2441 Y44.7573
G1 X59.2355 Y44.7325
G1 X59.2314 Y44.7066
G1 X59.2310 Y44.6760
G1 Y43.4960
G1 X59.2340 Y43.4662
G1 X59.2428 Y43.4376
G1 X59.2572 Y43.4113
G1 X59.2034 Y43.4725
G0 Z1.0000 F500
G0 X53.8103 Y59.0725 F3000
G0 Z0.5000 F500
G1 Z-0.1500 F120
G1 Y59.1667 F180
G1 X53.8507 Y59.1862
G1 X53.8835 Y59.2168
G1 X53.9058 Y59.2556
G1 X53.9156 Y59.2994
G1 X53.9160 Y60.2100
G1 X53.9134 Y60.2380
G1 X53.9056 Y60.2649
G1 X53.8929 Y60.2900
G1 X53.8758 Y60.3122
G1 X53.8548 Y60.3309
G1 X53.8307 Y60.3453
G1 X53.8043 Y60.3550
G1 X53.7766 Y60.3596
G1 X52.5660 Y60.3600
G1 X52.5209 Y60.3517
G1 X52.4792 Y60.3325
G1 X52.4435 Y60.3037
G1 X52.4160 Y60.2670
G1 X51.8660
G1 Y60.6170
G1 X51.8624 Y60.6487
G1 X51.8523 Y60.6790
G1 X51.8361 Y60.7064
G1 X51.8145 Y60.7299
G1 X51.7885 Y60.7484
G1 X51.7592 Y60.7611
G1 X51.7279 Y60.7674
G1 X51.6960 Y60.7670
G1 X50.4660
G1 X50.4380 Y60.7644
G1 X50.4111 Y60.7566
G1 X50.3860 Y60.7439
G1 X50.3638 Y60.7268
G1 X50.3451 Y60.7058
G1 X50.3307 Y60.6817
G1 X50.3210 Y60.6553
G1 X50.3164 Y60.6276
G1 X50.3160 Y59.1170
G1 X50.3190 Y59.0872
G1 X50.3257 Y59.0638
G1 X50.3362 Y59.0418
G1 X50.3501 Y59.0218
G1 X50.3670 Y59.0043
G1 X50.3865 Y58.9898
G1 X50.4082 Y58.9786
G1 X50.4313 Y58.9711
G1 X50.4554 Y58.9674
G1 X51.7160 Y58.9670
G1 X51.7440 Y58.9696
G1 X51.7709 Y58.9774
G1 X51.7960 Y58.9901
G1 X51.8182 Y59.0072
G1 X51.8369 Y59.0282
G1 X51.8513 Y59.0523
G1 X51.8610 Y59.0787
G1 X51.8656 Y59.1064
G1 X51.8660 Y59.4670
G1 X52.4160 Y59.4660
G1 X52.4167 Y59.2950
G1 X52.4230 Y59.2656
G1 X52.4348 Y59.2380
G1 X52.4518 Y59.2133
G1 X52.4733 Y59.1924
G1 X52.4985 Y59.1760
G1 X52.5264 Y59.1649
G1 X52.5560 Y59.1595
G1 X52.5860 Y59.1600
G1 X53.7660
G1 X53.7958 Y59.1630
G1 X53.8103 Y59.1667
G1 Y59.0725
G0 Z1.0000 F500


;No. 2: Drill 3
M05

G1 Z5
G1 X10 Y10 F4000
G1 Z0
M84 Z ; disable steppers
M00 ; wait for tool change
;Change tool: drill
M03
M17
G1 Z2
G1 X52 Y12 F4000
G1 Z0
M84 Z ; disable steppers
M00 ; wait for confirming
M17
G1 Z2 ; lift tool a bit before next move
G0 X55.9170 Y41.7260 Z1.0000 F3000
G0 Z0.5000 F500
G1 Z-1.8000 F120
G0 Z1.0000 F500


;No. 3: Drill 2
G0 X59.2190 Y49.3460 Z1.0000 F3000
G0 Z0.5000 F500
G1 Z-1.8000 F120
G0 Z1.0000 F500


;No. 4: Drill 1
G0 X53.4100 Y56.6180 Z1.0000 F3000
G0 Z0.5000 F500
G1 Z-1.8000 F120
G0 Z1.0000 F500


;No. 5: Part 45
M05

G1 Z5
G1 X10 Y10 F4000
G1 Z0
M84 Z ; disable steppers
M00 ; wait for tool change
;Change tool: mill
M03
M17
G1 Z2
G1 X52 Y12 F4000
G1 Z0
M84 Z ; disable steppers
M00 ; wait for confirming
M17
G1 Z2 ; lift tool a bit before next move
G0 X49.2843 Y49.3783 Z1.0000 F3000
G0 Z0.5000 F500
G1 Z-0.6000 F120
G1 X49.3120 Y39.9988
G1 X49.3278 Y39.8487
G1 X49.3732 Y39.7048
G1 X49.4464 Y39.5728
G1 X49.5445 Y39.4581
G1 X49.6635 Y39.3653
G1 X49.7986 Y39.2980
G1 X49.9444 Y39.2591
G1 X50.0950 Y39.2500
G1 X61.5050
G1 X61.6683 Y39.2666
G1 X61.8251 Y39.3151
G1 X61.9693 Y39.3937
G1 X62.0951 Y39.4991
G1 X62.1975 Y39.6274
G1 X62.2726 Y39.7734
G1 X62.3173 Y39.9313
G1 X62.3300 Y40.0950
G1 Y49.4375
G1 Y51.6875
G1 Y61.0300
G1 X62.3133 Y61.1933
G1 X62.2648 Y61.3501
G1 X62.1862 Y61.4942
G1 X62.0807 Y61.6199
G1 X61.9525 Y61.7223
G1 X61.8065 Y61.7974
G1 X61.6486 Y61.8423
G1 X61.4850 Y61.8550
G1 X50.0750
G1 X49.9212 Y61.8403
G1 X49.7729 Y61.7972
G1 X49.6352 Y61.7272
G1 X49.5129 Y61.6329
G1 X49.4103 Y61.5174
G1 X49.3309 Y61.3849
G1 X49.2776 Y61.2399
G1 X49.2522 Y61.0875
G1 X49.2501 Y61.0078
G1 X49.2777 Y51.6283
G1 X49.2843 Y49.3783
G1 Z-1.2000
G1 X49.3120 Y39.9988
G1 X49.3278 Y39.8487
G1 X49.3732 Y39.7048
G1 X49.4464 Y39.5728
G1 X49.5445 Y39.4581
G1 X49.6635 Y39.3653
G1 X49.7986 Y39.2980
G1 X49.9444 Y39.2591
G1 X50.0950 Y39.2500
G1 X61.5050
G1 X61.6683 Y39.2666
G1 X61.8251 Y39.3151
G1 X61.9693 Y39.3937
G1 X62.0951 Y39.4991
G1 X62.1975 Y39.6274
G1 X62.2726 Y39.7734
G1 X62.3173 Y39.9313
G1 X62.3300 Y40.0950
G1 Y49.4375
G0 Z-1.0000 F500
G1 Y51.6875 F120
G1 Z-1.2000
G1 Y61.0300
G1 X62.3133 Y61.1933
G1 X62.2648 Y61.3501
G1 X62.1862 Y61.4942
G1 X62.0807 Y61.6199
G1 X61.9525 Y61.7223
G1 X61.8065 Y61.7974
G1 X61.6486 Y61.8423
G1 X61.4850 Y61.8550
G1 X50.0750
G1 X49.9212 Y61.8403
G1 X49.7729 Y61.7972
G1 X49.6352 Y61.7272
G1 X49.5129 Y61.6329
G1 X49.4103 Y61.5174
G1 X49.3309 Y61.3849
G1 X49.2776 Y61.2399
G1 X49.2522 Y61.0875
G1 X49.2501 Y61.0078
G1 X49.2777 Y51.6283
G0 Z-1.0000 F500
G1 X49.2843 Y49.3783 F120
G1 Z-1.8000
G1 X49.3120 Y39.9988
G1 X49.3278 Y39.8487
G1 X49.3732 Y39.7048
G1 X49.4464 Y39.5728
G1 X49.5445 Y39.4581
G1 X49.6635 Y39.3653
G1 X49.7986 Y39.2980
G1 X49.9444 Y39.2591
G1 X50.0950 Y39.2500
G1 X61.5050
G1 X61.6683 Y39.2666
G1 X61.8251 Y39.3151
G1 X61.9693 Y39.3937
G1 X62.0951 Y39.4991
G1 X62.1975 Y39.6274
G1 X62.2726 Y39.7734
G1 X62.3173 Y39.9313
G1 X62.3300 Y40.0950
G1 Y49.4375
G0 Z-1.0000 F500
G1 Y51.6875 F120
G1 Z-1.8000
G1 Y61.0300
G1 X62.3133 Y61.1933
G1 X62.2648 Y61.3501
G1 X62.1862 Y61.4942
G1 X62.0807 Y61.6199
G1 X61.9525 Y61.7223
G1 X61.8065 Y61.7974
G1 X61.6486 Y61.8423
G1 X61.4850 Y61.8550
G1 X50.0750
G1 X49.9212 Y61.8403
G1 X49.7729 Y61.7972
G1 X49.6352 Y61.7272
G1 X49.5129 Y61.6329
G1 X49.4103 Y61.5174
G1 X49.3309 Y61.3849
G1 X49.2776 Y61.2399
G1 X49.2522 Y61.0875
G1 X49.2501 Y61.0078
G1 X49.2777 Y51.6283
G0 Z-1.0000 F500
G1 X49.2843 Y49.3783 F120
G0 Z1.0000 F500
G0 X0.0000 Y0.0000 F3000

M05
;M84; disable steppers
